PRISM/Resources/LUTs/Cool.cube
# Cool.cube — PRISM bundled LUT: −R +B tilt.
# Licensed under the Apache License, Version 2.0.
TITLE "Cool"
LUT_3D_SIZE 9
DOMAIN_MIN 0.000000 0.000000 0.000000
DOMAIN_MAX 1.000000 1.000000 1.000000
0.000000 0.000000 0.012000
0.109500 0.000000 0.012000
0.227000 0.000000 0.012000
0.344500 0.000000 0.012000
0.462000 0.000000 0.012000
0.579500 0.000000 0.012000
0.697000 0.000000 0.012000
0.814500 0.000000 0.012000
0.932000 0.000000 0.012000
0.000000 0.125000 0.012000
0.109500 0.125000 0.012000
0.227000 0.125000 0.012000
0.344500 0.125000 0.012000
0.462000 0.125000 0.012000
0.579500 0.125000 0.012000
0.697000 0.125000 0.012000
0.814500 0.125000 0.012000
0.932000 0.125000 0.012000
0.000000 0.250000 0.012000
0.109500 0.250000 0.012000
0.227000 0.250000 0.012000
0.344500 0.250000 0.012000
0.462000 0.250000 0.012000
0.579500 0.250000 0.012000
0.697000 0.250000 0.012000
0.814500 0.250000 0.012000
0.932000 0.250000 0.012000
0.000000 0.375000 0.012000
0.109500 0.375000 0.012000
0.227000 0.375000 0.012000
0.344500 0.375000 0.012000
0.462000 0.375000 0.012000
0.579500 0.375000 0.012000
0.697000 0.375000 0.012000
0.814500 0.375000 0.012000
0.932000 0.375000 0.012000
0.000000 0.500000 0.012000
0.109500 0.500000 0.012000
0.227000 0.500000 0.012000
0.344500 0.500000 0.012000
0.462000 0.500000 0.012000
0.579500 0.500000 0.012000
0.697000 0.500000 0.012000
0.814500 0.500000 0.012000
0.932000 0.500000 0.012000
0.000000 0.625000 0.012000
0.109500 0.625000 0.012000
0.227000 0.625000 0.012000
0.344500 0.625000 0.012000
0.462000 0.625000 0.012000
0.579500 0.625000 0.012000
0.697000 0.625000 0.012000
0.814500 0.625000 0.012000
0.932000 0.625000 0.012000
0.000000 0.750000 0.012000
0.109500 0.750000 0.012000
0.227000 0.750000 0.012000
0.344500 0.750000 0.012000
0.462000 0.750000 0.012000
0.579500 0.750000 0.012000
0.697000 0.750000 0.012000
0.814500 0.750000 0.012000
0.932000 0.750000 0.012000
0.000000 0.875000 0.012000
0.109500 0.875000 0.012000
0.227000 0.875000 0.012000
0.344500 0.875000 0.012000
0.462000 0.875000 0.012000
0.579500 0.875000 0.012000
0.697000 0.875000 0.012000
0.814500 0.875000 0.012000
0.932000 0.875000 0.012000
0.000000 1.000000 0.012000
0.109500 1.000000 0.012000
0.227000 1.000000 0.012000
0.344500 1.000000 0.012000
0.462000 1.000000 0.012000
0.579500 1.000000 0.012000
0.697000 1.000000 0.012000
0.814500 1.000000 0.012000
0.932000 1.000000 0.012000
0.000000 0.000000 0.144500
0.109500 0.000000 0.144500
0.227000 0.000000 0.144500
0.344500 0.000000 0.144500
0.462000 0.000000 0.144500
0.579500 0.000000 0.144500
0.697000 0.000000 0.144500
0.814500 0.000000 0.144500
0.932000 0.000000 0.144500
0.000000 0.125000 0.144500
0.109500 0.125000 0.144500
0.227000 0.125000 0.144500
0.344500 0.125000 0.144500
0.462000 0.125000 0.144500
0.579500 0.125000 0.144500
0.697000 0.125000 0.144500
0.814500 0.125000 0.144500
0.932000 0.125000 0.144500
0.000000 0.250000 0.144500
0.109500 0.250000 0.144500
0.227000 0.250000 0.144500
0.344500 0.250000 0.144500
0.462000 0.250000 0.144500
0.579500 0.250000 0.144500
0.697000 0.250000 0.144500
0.814500 0.250000 0.144500
0.932000 0.250000 0.144500
0.000000 0.375000 0.144500
0.109500 0.375000 0.144500
0.227000 0.375000 0.144500
0.344500 0.375000 0.144500
0.462000 0.375000 0.144500
0.579500 0.375000 0.144500
0.697000 0.375000 0.144500
0.814500 0.375000 0.144500
0.932000 0.375000 0.144500
0.000000 0.500000 0.144500
0.109500 0.500000 0.144500
0.227000 0.500000 0.144500
0.344500 0.500000 0.144500
0.462000 0.500000 0.144500
0.579500 0.500000 0.144500
0.697000 0.500000 0.144500
0.814500 0.500000 0.144500
0.932000 0.500000 0.144500
0.000000 0.625000 0.144500
0.109500 0.625000 0.144500
0.227000 0.625000 0.144500
0.344500 0.625000 0.144500
0.462000 0.625000 0.144500
0.579500 0.625000 0.144500
0.697000 0.625000 0.144500
0.814500 0.625000 0.144500
0.932000 0.625000 0.144500
0.000000 0.750000 0.144500
0.109500 0.750000 0.144500
0.227000 0.750000 0.144500
0.344500 0.750000 0.144500
0.462000 0.750000 0.144500
0.579500 0.750000 0.144500
0.697000 0.750000 0.144500
0.814500 0.750000 0.144500
0.932000 0.750000 0.144500
0.000000 0.875000 0.144500
0.109500 0.875000 0.144500
0.227000 0.875000 0.144500
0.344500 0.875000 0.144500
0.462000 0.875000 0.144500
0.579500 0.875000 0.144500
0.697000 0.875000 0.144500
0.814500 0.875000 0.144500
0.932000 0.875000 0.144500
0.000000 1.000000 0.144500
0.109500 1.000000 0.144500
0.227000 1.000000 0.144500
0.344500 1.000000 0.144500
0.462000 1.000000 0.144500
0.579500 1.000000 0.144500
0.697000 1.000000 0.144500
0.814500 1.000000 0.144500
0.932000 1.000000 0.144500
0.000000 0.000000 0.277000
0.109500 0.000000 0.277000
0.227000 0.000000 0.277000
0.344500 0.000000 0.277000
0.462000 0.000000 0.277000
0.579500 0.000000 0.277000
0.697000 0.000000 0.277000
0.814500 0.000000 0.277000
0.932000 0.000000 0.277000
0.000000 0.125000 0.277000
0.109500 0.125000 0.277000
0.227000 0.125000 0.277000
0.344500 0.125000 0.277000
0.462000 0.125000 0.277000
0.579500 0.125000 0.277000
0.697000 0.125000 0.277000
0.814500 0.125000 0.277000
0.932000 0.125000 0.277000
0.000000 0.250000 0.277000
0.109500 0.250000 0.277000
0.227000 0.250000 0.277000
0.344500 0.250000 0.277000
0.462000 0.250000 0.277000
0.579500 0.250000 0.277000
0.697000 0.250000 0.277000
0.814500 0.250000 0.277000
0.932000 0.250000 0.277000
0.000000 0.375000 0.277000
0.109500 0.375000 0.277000
0.227000 0.375000 0.277000
0.344500 0.375000 0.277000
0.462000 0.375000 0.277000
0.579500 0.375000 0.277000
0.697000 0.375000 0.277000
0.814500 0.375000 0.277000
0.932000 0.375000 0.277000
0.000000 0.500000 0.277000
0.109500 0.500000 0.277000
0.227000 0.500000 0.277000
0.344500 0.500000 0.277000
0.462000 0.500000 0.277000
0.579500 0.500000 0.277000
0.697000 0.500000 0.277000
0.814500 0.500000 0.277000
0.932000 0.500000 0.277000
0.000000 0.625000 0.277000
0.109500 0.625000 0.277000
0.227000 0.625000 0.277000
0.344500 0.625000 0.277000
0.462000 0.625000 0.277000
0.579500 0.625000 0.277000
0.697000 0.625000 0.277000
0.814500 0.625000 0.277000
0.932000 0.625000 0.277000
0.000000 0.750000 0.277000
0.109500 0.750000 0.277000
0.227000 0.750000 0.277000
0.344500 0.750000 0.277000
0.462000 0.750000 0.277000
0.579500 0.750000 0.277000
0.697000 0.750000 0.277000
0.814500 0.750000 0.277000
0.932000 0.750000 0.277000
0.000000 0.875000 0.277000
0.109500 0.875000 0.277000
0.227000 0.875000 0.277000
0.344500 0.875000 0.277000
0.462000 0.875000 0.277000
0.579500 0.875000 0.277000
0.697000 0.875000 0.277000
0.814500 0.875000 0.277000
0.932000 0.875000 0.277000
0.000000 1.000000 0.277000
0.109500 1.000000 0.277000
0.227000 1.000000 0.277000
0.344500 1.000000 0.277000
0.462000 1.000000 0.277000
0.579500 1.000000 0.277000
0.697000 1.000000 0.277000
0.814500 1.000000 0.277000
0.932000 1.000000 0.277000
0.000000 0.000000 0.409500
0.109500 0.000000 0.409500
0.227000 0.000000 0.409500
0.344500 0.000000 0.409500
0.462000 0.000000 0.409500
0.579500 0.000000 0.409500
0.697000 0.000000 0.409500
0.814500 0.000000 0.409500
0.932000 0.000000 0.409500
0.000000 0.125000 0.409500
0.109500 0.125000 0.409500
0.227000 0.125000 0.409500
0.344500 0.125000 0.409500
0.462000 0.125000 0.409500
0.579500 0.125000 0.409500
0.697000 0.125000 0.409500
0.814500 0.125000 0.409500
0.932000 0.125000 0.409500
0.000000 0.250000 0.409500
0.109500 0.250000 0.409500
0.227000 0.250000 0.409500
0.344500 0.250000 0.409500
0.462000 0.250000 0.409500
0.579500 0.250000 0.409500
0.697000 0.250000 0.409500
0.814500 0.250000 0.409500
0.932000 0.250000 0.409500
0.000000 0.375000 0.409500
0.109500 0.375000 0.409500
0.227000 0.375000 0.409500
0.344500 0.375000 0.409500
0.462000 0.375000 0.409500
0.579500 0.375000 0.409500
0.697000 0.375000 0.409500
0.814500 0.375000 0.409500
0.932000 0.375000 0.409500
0.000000 0.500000 0.409500
0.109500 0.500000 0.409500
0.227000 0.500000 0.409500
0.344500 0.500000 0.409500
0.462000 0.500000 0.409500
0.579500 0.500000 0.409500
0.697000 0.500000 0.409500
0.814500 0.500000 0.409500
0.932000 0.500000 0.409500
0.000000 0.625000 0.409500
0.109500 0.625000 0.409500
0.227000 0.625000 0.409500
0.344500 0.625000 0.409500
0.462000 0.625000 0.409500
0.579500 0.625000 0.409500
0.697000 0.625000 0.409500
0.814500 0.625000 0.409500
0.932000 0.625000 0.409500
0.000000 0.750000 0.409500
0.109500 0.750000 0.409500
0.227000 0.750000 0.409500
0.344500 0.750000 0.409500
0.462000 0.750000 0.409500
0.579500 0.750000 0.409500
0.697000 0.750000 0.409500
0.814500 0.750000 0.409500
0.932000 0.750000 0.409500
0.000000 0.875000 0.409500
0.109500 0.875000 0.409500
0.227000 0.875000 0.409500
0.344500 0.875000 0.409500
0.462000 0.875000 0.409500
0.579500 0.875000 0.409500
0.697000 0.875000 0.409500
0.814500 0.875000 0.409500
0.932000 0.875000 0.409500
0.000000 1.000000 0.409500
0.109500 1.000000 0.409500
0.227000 1.000000 0.409500
0.344500 1.000000 0.409500
0.462000 1.000000 0.409500
0.579500 1.000000 0.409500
0.697000 1.000000 0.409500
0.814500 1.000000 0.409500
0.932000 1.000000 0.409500
0.000000 0.000000 0.542000
0.109500 0.000000 0.542000
0.227000 0.000000 0.542000
0.344500 0.000000 0.542000
0.462000 0.000000 0.542000
0.579500 0.000000 0.542000
0.697000 0.000000 0.542000
0.814500 0.000000 0.542000
0.932000 0.000000 0.542000
0.000000 0.125000 0.542000
0.109500 0.125000 0.542000
0.227000 0.125000 0.542000
0.344500 0.125000 0.542000
0.462000 0.125000 0.542000
0.579500 0.125000 0.542000
0.697000 0.125000 0.542000
0.814500 0.125000 0.542000
0.932000 0.125000 0.542000
0.000000 0.250000 0.542000
0.109500 0.250000 0.542000
0.227000 0.250000 0.542000
0.344500 0.250000 0.542000
0.462000 0.250000 0.542000
0.579500 0.250000 0.542000
0.697000 0.250000 0.542000
0.814500 0.250000 0.542000
0.932000 0.250000 0.542000
0.000000 0.375000 0.542000
0.109500 0.375000 0.542000
0.227000 0.375000 0.542000
0.344500 0.375000 0.542000
0.462000 0.375000 0.542000
0.579500 0.375000 0.542000
0.697000 0.375000 0.542000
0.814500 0.375000 0.542000
0.932000 0.375000 0.542000
0.000000 0.500000 0.542000
0.109500 0.500000 0.542000
0.227000 0.500000 0.542000
0.344500 0.500000 0.542000
0.462000 0.500000 0.542000
0.579500 0.500000 0.542000
0.697000 0.500000 0.542000
0.814500 0.500000 0.542000
0.932000 0.500000 0.542000
0.000000 0.625000 0.542000
0.109500 0.625000 0.542000
0.227000 0.625000 0.542000
0.344500 0.625000 0.542000
0.462000 0.625000 0.542000
0.579500 0.625000 0.542000
0.697000 0.625000 0.542000
0.814500 0.625000 0.542000
0.932000 0.625000 0.542000
0.000000 0.750000 0.542000
0.109500 0.750000 0.542000
0.227000 0.750000 0.542000
0.344500 0.750000 0.542000
0.462000 0.750000 0.542000
0.579500 0.750000 0.542000
0.697000 0.750000 0.542000
0.814500 0.750000 0.542000
0.932000 0.750000 0.542000
0.000000 0.875000 0.542000
0.109500 0.875000 0.542000
0.227000 0.875000 0.542000
0.344500 0.875000 0.542000
0.462000 0.875000 0.542000
0.579500 0.875000 0.542000
0.697000 0.875000 0.542000
0.814500 0.875000 0.542000
0.932000 0.875000 0.542000
0.000000 1.000000 0.542000
0.109500 1.000000 0.542000
0.227000 1.000000 0.542000
0.344500 1.000000 0.542000
0.462000 1.000000 0.542000
0.579500 1.000000 0.542000
0.697000 1.000000 0.542000
0.814500 1.000000 0.542000
0.932000 1.000000 0.542000
0.000000 0.000000 0.674500
0.109500 0.000000 0.674500
0.227000 0.000000 0.674500
0.344500 0.000000 0.674500
0.462000 0.000000 0.674500
0.579500 0.000000 0.674500
0.697000 0.000000 0.674500
0.814500 0.000000 0.674500
0.932000 0.000000 0.674500
0.000000 0.125000 0.674500
0.109500 0.125000 0.674500
0.227000 0.125000 0.674500
0.344500 0.125000 0.674500
0.462000 0.125000 0.674500
0.579500 0.125000 0.674500
0.697000 0.125000 0.674500
0.814500 0.125000 0.674500
0.932000 0.125000 0.674500
0.000000 0.250000 0.674500
0.109500 0.250000 0.674500
0.227000 0.250000 0.674500
0.344500 0.250000 0.674500
0.462000 0.250000 0.674500
0.579500 0.250000 0.674500
0.697000 0.250000 0.674500
0.814500 0.250000 0.674500
0.932000 0.250000 0.674500
0.000000 0.375000 0.674500
0.109500 0.375000 0.674500
0.227000 0.375000 0.674500
0.344500 0.375000 0.674500
0.462000 0.375000 0.674500
0.579500 0.375000 0.674500
0.697000 0.375000 0.674500
0.814500 0.375000 0.674500
0.932000 0.375000 0.674500
0.000000 0.500000 0.674500
0.109500 0.500000 0.674500
0.227000 0.500000 0.674500
0.344500 0.500000 0.674500
0.462000 0.500000 0.674500
0.579500 0.500000 0.674500
0.697000 0.500000 0.674500
0.814500 0.500000 0.674500
0.932000 0.500000 0.674500
0.000000 0.625000 0.674500
0.109500 0.625000 0.674500
0.227000 0.625000 0.674500
0.344500 0.625000 0.674500
0.462000 0.625000 0.674500
0.579500 0.625000 0.674500
0.697000 0.625000 0.674500
0.814500 0.625000 0.674500
0.932000 0.625000 0.674500
0.000000 0.750000 0.674500
0.109500 0.750000 0.674500
0.227000 0.750000 0.674500
0.344500 0.750000 0.674500
0.462000 0.750000 0.674500
0.579500 0.750000 0.674500
0.697000 0.750000 0.674500
0.814500 0.750000 0.674500
0.932000 0.750000 0.674500
0.000000 0.875000 0.674500
0.109500 0.875000 0.674500
0.227000 0.875000 0.674500
0.344500 0.875000 0.674500
0.462000 0.875000 0.674500
0.579500 0.875000 0.674500
0.697000 0.875000 0.674500
0.814500 0.875000 0.674500
0.932000 0.875000 0.674500
0.000000 1.000000 0.674500
0.109500 1.000000 0.674500
0.227000 1.000000 0.674500
0.344500 1.000000 0.674500
0.462000 1.000000 0.674500
0.579500 1.000000 0.674500
0.697000 1.000000 0.674500
0.814500 1.000000 0.674500
0.932000 1.000000 0.674500
0.000000 0.000000 0.807000
0.109500 0.000000 0.807000
0.227000 0.000000 0.807000
0.344500 0.000000 0.807000
0.462000 0.000000 0.807000
0.579500 0.000000 0.807000
0.697000 0.000000 0.807000
0.814500 0.000000 0.807000
0.932000 0.000000 0.807000
0.000000 0.125000 0.807000
0.109500 0.125000 0.807000
0.227000 0.125000 0.807000
0.344500 0.125000 0.807000
0.462000 0.125000 0.807000
0.579500 0.125000 0.807000
0.697000 0.125000 0.807000
0.814500 0.125000 0.807000
0.932000 0.125000 0.807000
0.000000 0.250000 0.807000
0.109500 0.250000 0.807000
0.227000 0.250000 0.807000
0.344500 0.250000 0.807000
0.462000 0.250000 0.807000
0.579500 0.250000 0.807000
0.697000 0.250000 0.807000
0.814500 0.250000 0.807000
0.932000 0.250000 0.807000
0.000000 0.375000 0.807000
0.109500 0.375000 0.807000
0.227000 0.375000 0.807000
0.344500 0.375000 0.807000
0.462000 0.375000 0.807000
0.579500 0.375000 0.807000
0.697000 0.375000 0.807000
0.814500 0.375000 0.807000
0.932000 0.375000 0.807000
0.000000 0.500000 0.807000
0.109500 0.500000 0.807000
0.227000 0.500000 0.807000
0.344500 0.500000 0.807000
0.462000 0.500000 0.807000
0.579500 0.500000 0.807000
0.697000 0.500000 0.807000
0.814500 0.500000 0.807000
0.932000 0.500000 0.807000
0.000000 0.625000 0.807000
0.109500 0.625000 0.807000
0.227000 0.625000 0.807000
0.344500 0.625000 0.807000
0.462000 0.625000 0.807000
0.579500 0.625000 0.807000
0.697000 0.625000 0.807000
0.814500 0.625000 0.807000
0.932000 0.625000 0.807000
0.000000 0.750000 0.807000
0.109500 0.750000 0.807000
0.227000 0.750000 0.807000
0.344500 0.750000 0.807000
0.462000 0.750000 0.807000
0.579500 0.750000 0.807000
0.697000 0.750000 0.807000
0.814500 0.750000 0.807000
0.932000 0.750000 0.807000
0.000000 0.875000 0.807000
0.109500 0.875000 0.807000
0.227000 0.875000 0.807000
0.344500 0.875000 0.807000
0.462000 0.875000 0.807000
0.579500 0.875000 0.807000
0.697000 0.875000 0.807000
0.814500 0.875000 0.807000
0.932000 0.875000 0.807000
0.000000 1.000000 0.807000
0.109500 1.000000 0.807000
0.227000 1.000000 0.807000
0.344500 1.000000 0.807000
0.462000 1.000000 0.807000
0.579500 1.000000 0.807000
0.697000 1.000000 0.807000
0.814500 1.000000 0.807000
0.932000 1.000000 0.807000
0.000000 0.000000 0.939500
0.109500 0.000000 0.939500
0.227000 0.000000 0.939500
0.344500 0.000000 0.939500
0.462000 0.000000 0.939500
0.579500 0.000000 0.939500
0.697000 0.000000 0.939500
0.814500 0.000000 0.939500
0.932000 0.000000 0.939500
0.000000 0.125000 0.939500
0.109500 0.125000 0.939500
0.227000 0.125000 0.939500
0.344500 0.125000 0.939500
0.462000 0.125000 0.939500
0.579500 0.125000 0.939500
0.697000 0.125000 0.939500
0.814500 0.125000 0.939500
0.932000 0.125000 0.939500
0.000000 0.250000 0.939500
0.109500 0.250000 0.939500
0.227000 0.250000 0.939500
0.344500 0.250000 0.939500
0.462000 0.250000 0.939500
0.579500 0.250000 0.939500
0.697000 0.250000 0.939500
0.814500 0.250000 0.939500
0.932000 0.250000 0.939500
0.000000 0.375000 0.939500
0.109500 0.375000 0.939500
0.227000 0.375000 0.939500
0.344500 0.375000 0.939500
0.462000 0.375000 0.939500
0.579500 0.375000 0.939500
0.697000 0.375000 0.939500
0.814500 0.375000 0.939500
0.932000 0.375000 0.939500
0.000000 0.500000 0.939500
0.109500 0.500000 0.939500
0.227000 0.500000 0.939500
0.344500 0.500000 0.939500
0.462000 0.500000 0.939500
0.579500 0.500000 0.939500
0.697000 0.500000 0.939500
0.814500 0.500000 0.939500
0.932000 0.500000 0.939500
0.000000 0.625000 0.939500
0.109500 0.625000 0.939500
0.227000 0.625000 0.939500
0.344500 0.625000 0.939500
0.462000 0.625000 0.939500
0.579500 0.625000 0.939500
0.697000 0.625000 0.939500
0.814500 0.625000 0.939500
0.932000 0.625000 0.939500
0.000000 0.750000 0.939500
0.109500 0.750000 0.939500
0.227000 0.750000 0.939500
0.344500 0.750000 0.939500
0.462000 0.750000 0.939500
0.579500 0.750000 0.939500
0.697000 0.750000 0.939500
0.814500 0.750000 0.939500
0.932000 0.750000 0.939500
0.000000 0.875000 0.939500
0.109500 0.875000 0.939500
0.227000 0.875000 0.939500
0.344500 0.875000 0.939500
0.462000 0.875000 0.939500
0.579500 0.875000 0.939500
0.697000 0.875000 0.939500
0.814500 0.875000 0.939500
0.932000 0.875000 0.939500
0.000000 1.000000 0.939500
0.109500 1.000000 0.939500
0.227000 1.000000 0.939500
0.344500 1.000000 0.939500
0.462000 1.000000 0.939500
0.579500 1.000000 0.939500
0.697000 1.000000 0.939500
0.814500 1.000000 0.939500
0.932000 1.000000 0.939500
0.000000 0.000000 1.000000
0.109500 0.000000 1.000000
0.227000 0.000000 1.000000
0.344500 0.000000 1.000000
0.462000 0.000000 1.000000
0.579500 0.000000 1.000000
0.697000 0.000000 1.000000
0.814500 0.000000 1.000000
0.932000 0.000000 1.000000
0.000000 0.125000 1.000000
0.109500 0.125000 1.000000
0.227000 0.125000 1.000000
0.344500 0.125000 1.000000
0.462000 0.125000 1.000000
0.579500 0.125000 1.000000
0.697000 0.125000 1.000000
0.814500 0.125000 1.000000
0.932000 0.125000 1.000000
0.000000 0.250000 1.000000
0.109500 0.250000 1.000000
0.227000 0.250000 1.000000
0.344500 0.250000 1.000000
0.462000 0.250000 1.000000
0.579500 0.250000 1.000000
0.697000 0.250000 1.000000
0.814500 0.250000 1.000000
0.932000 0.250000 1.000000
0.000000 0.375000 1.000000
0.109500 0.375000 1.000000
0.227000 0.375000 1.000000
0.344500 0.375000 1.000000
0.462000 0.375000 1.000000
0.579500 0.375000 1.000000
0.697000 0.375000 1.000000
0.814500 0.375000 1.000000
0.932000 0.375000 1.000000
0.000000 0.500000 1.000000
0.109500 0.500000 1.000000
0.227000 0.500000 1.000000
0.344500 0.500000 1.000000
0.462000 0.500000 1.000000
0.579500 0.500000 1.000000
0.697000 0.500000 1.000000
0.814500 0.500000 1.000000
0.932000 0.500000 1.000000
0.000000 0.625000 1.000000
0.109500 0.625000 1.000000
0.227000 0.625000 1.000000
0.344500 0.625000 1.000000
0.462000 0.625000 1.000000
0.579500 0.625000 1.000000
0.697000 0.625000 1.000000
0.814500 0.625000 1.000000
0.932000 0.625000 1.000000
0.000000 0.750000 1.000000
0.109500 0.750000 1.000000
0.227000 0.750000 1.000000
0.344500 0.750000 1.000000
0.462000 0.750000 1.000000
0.579500 0.750000 1.000000
0.697000 0.750000 1.000000
0.814500 0.750000 1.000000
0.932000 0.750000 1.000000
0.000000 0.875000 1.000000
0.109500 0.875000 1.000000
0.227000 0.875000 1.000000
0.344500 0.875000 1.000000
0.462000 0.875000 1.000000
0.579500 0.875000 1.000000
0.697000 0.875000 1.000000
0.814500 0.875000 1.000000
0.932000 0.875000 1.000000
0.000000 1.000000 1.000000
0.109500 1.000000 1.000000
0.227000 1.000000 1.000000
0.344500 1.000000 1.000000
0.462000 1.000000 1.000000
0.579500 1.000000 1.000000
0.697000 1.000000 1.000000
0.814500 1.000000 1.000000
0.932000 1.000000 1.000000
