PRISM/Resources/LUTs/Cool.cube
# Cool.cube — PRISM bundled LUT: −R +B tilt.
# Licensed under the Apache License, Version 2.0.
TITLE "Cool"
LUT_3D_SIZE 5
DOMAIN_MIN 0.000000 0.000000 0.000000
DOMAIN_MAX 1.000000 1.000000 1.000000
0.000000 0.000000 0.012000
0.227000 0.000000 0.012000
0.462000 0.000000 0.012000
0.697000 0.000000 0.012000
0.932000 0.000000 0.012000
0.000000 0.250000 0.012000
0.227000 0.250000 0.012000
0.462000 0.250000 0.012000
0.697000 0.250000 0.012000
0.932000 0.250000 0.012000
0.000000 0.500000 0.012000
0.227000 0.500000 0.012000
0.462000 0.500000 0.012000
0.697000 0.500000 0.012000
0.932000 0.500000 0.012000
0.000000 0.750000 0.012000
0.227000 0.750000 0.012000
0.462000 0.750000 0.012000
0.697000 0.750000 0.012000
0.932000 0.750000 0.012000
0.000000 1.000000 0.012000
0.227000 1.000000 0.012000
0.462000 1.000000 0.012000
0.697000 1.000000 0.012000
0.932000 1.000000 0.012000
0.000000 0.000000 0.277000
0.227000 0.000000 0.277000
0.462000 0.000000 0.277000
0.697000 0.000000 0.277000
0.932000 0.000000 0.277000
0.000000 0.250000 0.277000
0.227000 0.250000 0.277000
0.462000 0.250000 0.277000
0.697000 0.250000 0.277000
0.932000 0.250000 0.277000
0.000000 0.500000 0.277000
0.227000 0.500000 0.277000
0.462000 0.500000 0.277000
0.697000 0.500000 0.277000
0.932000 0.500000 0.277000
0.000000 0.750000 0.277000
0.227000 0.750000 0.277000
0.462000 0.750000 0.277000
0.697000 0.750000 0.277000
0.932000 0.750000 0.277000
0.000000 1.000000 0.277000
0.227000 1.000000 0.277000
0.462000 1.000000 0.277000
0.697000 1.000000 0.277000
0.932000 1.000000 0.277000
0.000000 0.000000 0.542000
0.227000 0.000000 0.542000
0.462000 0.000000 0.542000
0.697000 0.000000 0.542000
0.932000 0.000000 0.542000
0.000000 0.250000 0.542000
0.227000 0.250000 0.542000
0.462000 0.250000 0.542000
0.697000 0.250000 0.542000
0.932000 0.250000 0.542000
0.000000 0.500000 0.542000
0.227000 0.500000 0.542000
0.462000 0.500000 0.542000
0.697000 0.500000 0.542000
0.932000 0.500000 0.542000
0.000000 0.750000 0.542000
0.227000 0.750000 0.542000
0.462000 0.750000 0.542000
0.697000 0.750000 0.542000
0.932000 0.750000 0.542000
0.000000 1.000000 0.542000
0.227000 1.000000 0.542000
0.462000 1.000000 0.542000
0.697000 1.000000 0.542000
0.932000 1.000000 0.542000
0.000000 0.000000 0.807000
0.227000 0.000000 0.807000
0.462000 0.000000 0.807000
0.697000 0.000000 0.807000
0.932000 0.000000 0.807000
0.000000 0.250000 0.807000
0.227000 0.250000 0.807000
0.462000 0.250000 0.807000
0.697000 0.250000 0.807000
0.932000 0.250000 0.807000
0.000000 0.500000 0.807000
0.227000 0.500000 0.807000
0.462000 0.500000 0.807000
0.697000 0.500000 0.807000
0.932000 0.500000 0.807000
0.000000 0.750000 0.807000
0.227000 0.750000 0.807000
0.462000 0.750000 0.807000
0.697000 0.750000 0.807000
0.932000 0.750000 0.807000
0.000000 1.000000 0.807000
0.227000 1.000000 0.807000
0.462000 1.000000 0.807000
0.697000 1.000000 0.807000
0.932000 1.000000 0.807000
0.000000 0.000000 1.000000
0.227000 0.000000 1.000000
0.462000 0.000000 1.000000
0.697000 0.000000 1.000000
0.932000 0.000000 1.000000
0.000000 0.250000 1.000000
0.227000 0.250000 1.000000
0.462000 0.250000 1.000000
0.697000 0.250000 1.000000
0.932000 0.250000 1.000000
0.000000 0.500000 1.000000
0.227000 0.500000 1.000000
0.462000 0.500000 1.000000
0.697000 0.500000 1.000000
0.932000 0.500000 1.000000
0.000000 0.750000 1.000000
0.227000 0.750000 1.000000
0.462000 0.750000 1.000000
0.697000 0.750000 1.000000
0.932000 0.750000 1.000000
0.000000 1.000000 1.000000
0.227000 1.000000 1.000000
0.462000 1.000000 1.000000
0.697000 1.000000 1.000000
0.932000 1.000000 1.000000
