PRISM/Resources/LUTs/Cool.cube
# Cool.cube — PRISM bundled LUT: −R +B tilt.
# Licensed under the Apache License, Version 2.0.
TITLE "Cool"
LUT_3D_SIZE 17
DOMAIN_MIN 0.000000 0.000000 0.000000
DOMAIN_MAX 1.000000 1.000000 1.000000
0.000000 0.000000 0.012000
0.050750 0.000000 0.012000
0.109500 0.000000 0.012000
0.168250 0.000000 0.012000
0.227000 0.000000 0.012000
0.285750 0.000000 0.012000
0.344500 0.000000 0.012000
0.403250 0.000000 0.012000
0.462000 0.000000 0.012000
0.520750 0.000000 0.012000
0.579500 0.000000 0.012000
0.638250 0.000000 0.012000
0.697000 0.000000 0.012000
0.755750 0.000000 0.012000
0.814500 0.000000 0.012000
0.873250 0.000000 0.012000
0.932000 0.000000 0.012000
0.000000 0.062500 0.012000
0.050750 0.062500 0.012000
0.109500 0.062500 0.012000
0.168250 0.062500 0.012000
0.227000 0.062500 0.012000
0.285750 0.062500 0.012000
0.344500 0.062500 0.012000
0.403250 0.062500 0.012000
0.462000 0.062500 0.012000
0.520750 0.062500 0.012000
0.579500 0.062500 0.012000
0.638250 0.062500 0.012000
0.697000 0.062500 0.012000
0.755750 0.062500 0.012000
0.814500 0.062500 0.012000
0.873250 0.062500 0.012000
0.932000 0.062500 0.012000
0.000000 0.125000 0.012000
0.050750 0.125000 0.012000
0.109500 0.125000 0.012000
0.168250 0.125000 0.012000
0.227000 0.125000 0.012000
0.285750 0.125000 0.012000
0.344500 0.125000 0.012000
0.403250 0.125000 0.012000
0.462000 0.125000 0.012000
0.520750 0.125000 0.012000
0.579500 0.125000 0.012000
0.638250 0.125000 0.012000
0.697000 0.125000 0.012000
0.755750 0.125000 0.012000
0.814500 0.125000 0.012000
0.873250 0.125000 0.012000
0.932000 0.125000 0.012000
0.000000 0.187500 0.012000
0.050750 0.187500 0.012000
0.109500 0.187500 0.012000
0.168250 0.187500 0.012000
0.227000 0.187500 0.012000
0.285750 0.187500 0.012000
0.344500 0.187500 0.012000
0.403250 0.187500 0.012000
0.462000 0.187500 0.012000
0.520750 0.187500 0.012000
0.579500 0.187500 0.012000
0.638250 0.187500 0.012000
0.697000 0.187500 0.012000
0.755750 0.187500 0.012000
0.814500 0.187500 0.012000
0.873250 0.187500 0.012000
0.932000 0.187500 0.012000
0.000000 0.250000 0.012000
0.050750 0.250000 0.012000
0.109500 0.250000 0.012000
0.168250 0.250000 0.012000
0.227000 0.250000 0.012000
0.285750 0.250000 0.012000
0.344500 0.250000 0.012000
0.403250 0.250000 0.012000
0.462000 0.250000 0.012000
0.520750 0.250000 0.012000
0.579500 0.250000 0.012000
0.638250 0.250000 0.012000
0.697000 0.250000 0.012000
0.755750 0.250000 0.012000
0.814500 0.250000 0.012000
0.873250 0.250000 0.012000
0.932000 0.250000 0.012000
0.000000 0.312500 0.012000
0.050750 0.312500 0.012000
0.109500 0.312500 0.012000
0.168250 0.312500 0.012000
0.227000 0.312500 0.012000
0.285750 0.312500 0.012000
0.344500 0.312500 0.012000
0.403250 0.312500 0.012000
0.462000 0.312500 0.012000
0.520750 0.312500 0.012000
0.579500 0.312500 0.012000
0.638250 0.312500 0.012000
0.697000 0.312500 0.012000
0.755750 0.312500 0.012000
0.814500 0.312500 0.012000
0.873250 0.312500 0.012000
0.932000 0.312500 0.012000
0.000000 0.375000 0.012000
0.050750 0.375000 0.012000
0.109500 0.375000 0.012000
0.168250 0.375000 0.012000
0.227000 0.375000 0.012000
0.285750 0.375000 0.012000
0.344500 0.375000 0.012000
0.403250 0.375000 0.012000
0.462000 0.375000 0.012000
0.520750 0.375000 0.012000
0.579500 0.375000 0.012000
0.638250 0.375000 0.012000
0.697000 0.375000 0.012000
0.755750 0.375000 0.012000
0.814500 0.375000 0.012000
0.873250 0.375000 0.012000
0.932000 0.375000 0.012000
0.000000 0.437500 0.012000
0.050750 0.437500 0.012000
0.109500 0.437500 0.012000
0.168250 0.437500 0.012000
0.227000 0.437500 0.012000
0.285750 0.437500 0.012000
0.344500 0.437500 0.012000
0.403250 0.437500 0.012000
0.462000 0.437500 0.012000
0.520750 0.437500 0.012000
0.579500 0.437500 0.012000
0.638250 0.437500 0.012000
0.697000 0.437500 0.012000
0.755750 0.437500 0.012000
0.814500 0.437500 0.012000
0.873250 0.437500 0.012000
0.932000 0.437500 0.012000
0.000000 0.500000 0.012000
0.050750 0.500000 0.012000
0.109500 0.500000 0.012000
0.168250 0.500000 0.012000
0.227000 0.500000 0.012000
0.285750 0.500000 0.012000
0.344500 0.500000 0.012000
0.403250 0.500000 0.012000
0.462000 0.500000 0.012000
0.520750 0.500000 0.012000
0.579500 0.500000 0.012000
0.638250 0.500000 0.012000
0.697000 0.500000 0.012000
0.755750 0.500000 0.012000
0.814500 0.500000 0.012000
0.873250 0.500000 0.012000
0.932000 0.500000 0.012000
0.000000 0.562500 0.012000
0.050750 0.562500 0.012000
0.109500 0.562500 0.012000
0.168250 0.562500 0.012000
0.227000 0.562500 0.012000
0.285750 0.562500 0.012000
0.344500 0.562500 0.012000
0.403250 0.562500 0.012000
0.462000 0.562500 0.012000
0.520750 0.562500 0.012000
0.579500 0.562500 0.012000
0.638250 0.562500 0.012000
0.697000 0.562500 0.012000
0.755750 0.562500 0.012000
0.814500 0.562500 0.012000
0.873250 0.562500 0.012000
0.932000 0.562500 0.012000
0.000000 0.625000 0.012000
0.050750 0.625000 0.012000
0.109500 0.625000 0.012000
0.168250 0.625000 0.012000
0.227000 0.625000 0.012000
0.285750 0.625000 0.012000
0.344500 0.625000 0.012000
0.403250 0.625000 0.012000
0.462000 0.625000 0.012000
0.520750 0.625000 0.012000
0.579500 0.625000 0.012000
0.638250 0.625000 0.012000
0.697000 0.625000 0.012000
0.755750 0.625000 0.012000
0.814500 0.625000 0.012000
0.873250 0.625000 0.012000
0.932000 0.625000 0.012000
0.000000 0.687500 0.012000
0.050750 0.687500 0.012000
0.109500 0.687500 0.012000
0.168250 0.687500 0.012000
0.227000 0.687500 0.012000
0.285750 0.687500 0.012000
0.344500 0.687500 0.012000
0.403250 0.687500 0.012000
0.462000 0.687500 0.012000
0.520750 0.687500 0.012000
0.579500 0.687500 0.012000
0.638250 0.687500 0.012000
0.697000 0.687500 0.012000
0.755750 0.687500 0.012000
0.814500 0.687500 0.012000
0.873250 0.687500 0.012000
0.932000 0.687500 0.012000
0.000000 0.750000 0.012000
0.050750 0.750000 0.012000
0.109500 0.750000 0.012000
0.168250 0.750000 0.012000
0.227000 0.750000 0.012000
0.285750 0.750000 0.012000
0.344500 0.750000 0.012000
0.403250 0.750000 0.012000
0.462000 0.750000 0.012000
0.520750 0.750000 0.012000
0.579500 0.750000 0.012000
0.638250 0.750000 0.012000
0.697000 0.750000 0.012000
0.755750 0.750000 0.012000
0.814500 0.750000 0.012000
0.873250 0.750000 0.012000
0.932000 0.750000 0.012000
0.000000 0.812500 0.012000
0.050750 0.812500 0.012000
0.109500 0.812500 0.012000
0.168250 0.812500 0.012000
0.227000 0.812500 0.012000
0.285750 0.812500 0.012000
0.344500 0.812500 0.012000
0.403250 0.812500 0.012000
0.462000 0.812500 0.012000
0.520750 0.812500 0.012000
0.579500 0.812500 0.012000
0.638250 0.812500 0.012000
0.697000 0.812500 0.012000
0.755750 0.812500 0.012000
0.814500 0.812500 0.012000
0.873250 0.812500 0.012000
0.932000 0.812500 0.012000
0.000000 0.875000 0.012000
0.050750 0.875000 0.012000
0.109500 0.875000 0.012000
0.168250 0.875000 0.012000
0.227000 0.875000 0.012000
0.285750 0.875000 0.012000
0.344500 0.875000 0.012000
0.403250 0.875000 0.012000
0.462000 0.875000 0.012000
0.520750 0.875000 0.012000
0.579500 0.875000 0.012000
0.638250 0.875000 0.012000
0.697000 0.875000 0.012000
0.755750 0.875000 0.012000
0.814500 0.875000 0.012000
0.873250 0.875000 0.012000
0.932000 0.875000 0.012000
0.000000 0.937500 0.012000
0.050750 0.937500 0.012000
0.109500 0.937500 0.012000
0.168250 0.937500 0.012000
0.227000 0.937500 0.012000
0.285750 0.937500 0.012000
0.344500 0.937500 0.012000
0.403250 0.937500 0.012000
0.462000 0.937500 0.012000
0.520750 0.937500 0.012000
0.579500 0.937500 0.012000
0.638250 0.937500 0.012000
0.697000 0.937500 0.012000
0.755750 0.937500 0.012000
0.814500 0.937500 0.012000
0.873250 0.937500 0.012000
0.932000 0.937500 0.012000
0.000000 1.000000 0.012000
0.050750 1.000000 0.012000
0.109500 1.000000 0.012000
0.168250 1.000000 0.012000
0.227000 1.000000 0.012000
0.285750 1.000000 0.012000
0.344500 1.000000 0.012000
0.403250 1.000000 0.012000
0.462000 1.000000 0.012000
0.520750 1.000000 0.012000
0.579500 1.000000 0.012000
0.638250 1.000000 0.012000
0.697000 1.000000 0.012000
0.755750 1.000000 0.012000
0.814500 1.000000 0.012000
0.873250 1.000000 0.012000
0.932000 1.000000 0.012000
0.000000 0.000000 0.078250
0.050750 0.000000 0.078250
0.109500 0.000000 0.078250
0.168250 0.000000 0.078250
0.227000 0.000000 0.078250
0.285750 0.000000 0.078250
0.344500 0.000000 0.078250
0.403250 0.000000 0.078250
0.462000 0.000000 0.078250
0.520750 0.000000 0.078250
0.579500 0.000000 0.078250
0.638250 0.000000 0.078250
0.697000 0.000000 0.078250
0.755750 0.000000 0.078250
0.814500 0.000000 0.078250
0.873250 0.000000 0.078250
0.932000 0.000000 0.078250
0.000000 0.062500 0.078250
0.050750 0.062500 0.078250
0.109500 0.062500 0.078250
0.168250 0.062500 0.078250
0.227000 0.062500 0.078250
0.285750 0.062500 0.078250
0.344500 0.062500 0.078250
0.403250 0.062500 0.078250
0.462000 0.062500 0.078250
0.520750 0.062500 0.078250
0.579500 0.062500 0.078250
0.638250 0.062500 0.078250
0.697000 0.062500 0.078250
0.755750 0.062500 0.078250
0.814500 0.062500 0.078250
0.873250 0.062500 0.078250
0.932000 0.062500 0.078250
0.000000 0.125000 0.078250
0.050750 0.125000 0.078250
0.109500 0.125000 0.078250
0.168250 0.125000 0.078250
0.227000 0.125000 0.078250
0.285750 0.125000 0.078250
0.344500 0.125000 0.078250
0.403250 0.125000 0.078250
0.462000 0.125000 0.078250
0.520750 0.125000 0.078250
0.579500 0.125000 0.078250
0.638250 0.125000 0.078250
0.697000 0.125000 0.078250
0.755750 0.125000 0.078250
0.814500 0.125000 0.078250
0.873250 0.125000 0.078250
0.932000 0.125000 0.078250
0.000000 0.187500 0.078250
0.050750 0.187500 0.078250
0.109500 0.187500 0.078250
0.168250 0.187500 0.078250
0.227000 0.187500 0.078250
0.285750 0.187500 0.078250
0.344500 0.187500 0.078250
0.403250 0.187500 0.078250
0.462000 0.187500 0.078250
0.520750 0.187500 0.078250
0.579500 0.187500 0.078250
0.638250 0.187500 0.078250
0.697000 0.187500 0.078250
0.755750 0.187500 0.078250
0.814500 0.187500 0.078250
0.873250 0.187500 0.078250
0.932000 0.187500 0.078250
0.000000 0.250000 0.078250
0.050750 0.250000 0.078250
0.109500 0.250000 0.078250
0.168250 0.250000 0.078250
0.227000 0.250000 0.078250
0.285750 0.250000 0.078250
0.344500 0.250000 0.078250
0.403250 0.250000 0.078250
0.462000 0.250000 0.078250
0.520750 0.250000 0.078250
0.579500 0.250000 0.078250
0.638250 0.250000 0.078250
0.697000 0.250000 0.078250
0.755750 0.250000 0.078250
0.814500 0.250000 0.078250
0.873250 0.250000 0.078250
0.932000 0.250000 0.078250
0.000000 0.312500 0.078250
0.050750 0.312500 0.078250
0.109500 0.312500 0.078250
0.168250 0.312500 0.078250
0.227000 0.312500 0.078250
0.285750 0.312500 0.078250
0.344500 0.312500 0.078250
0.403250 0.312500 0.078250
0.462000 0.312500 0.078250
0.520750 0.312500 0.078250
0.579500 0.312500 0.078250
0.638250 0.312500 0.078250
0.697000 0.312500 0.078250
0.755750 0.312500 0.078250
0.814500 0.312500 0.078250
0.873250 0.312500 0.078250
0.932000 0.312500 0.078250
0.000000 0.375000 0.078250
0.050750 0.375000 0.078250
0.109500 0.375000 0.078250
0.168250 0.375000 0.078250
0.227000 0.375000 0.078250
0.285750 0.375000 0.078250
0.344500 0.375000 0.078250
0.403250 0.375000 0.078250
0.462000 0.375000 0.078250
0.520750 0.375000 0.078250
0.579500 0.375000 0.078250
0.638250 0.375000 0.078250
0.697000 0.375000 0.078250
0.755750 0.375000 0.078250
0.814500 0.375000 0.078250
0.873250 0.375000 0.078250
0.932000 0.375000 0.078250
0.000000 0.437500 0.078250
0.050750 0.437500 0.078250
0.109500 0.437500 0.078250
0.168250 0.437500 0.078250
0.227000 0.437500 0.078250
0.285750 0.437500 0.078250
0.344500 0.437500 0.078250
0.403250 0.437500 0.078250
0.462000 0.437500 0.078250
0.520750 0.437500 0.078250
0.579500 0.437500 0.078250
0.638250 0.437500 0.078250
0.697000 0.437500 0.078250
0.755750 0.437500 0.078250
0.814500 0.437500 0.078250
0.873250 0.437500 0.078250
0.932000 0.437500 0.078250
0.000000 0.500000 0.078250
0.050750 0.500000 0.078250
0.109500 0.500000 0.078250
0.168250 0.500000 0.078250
0.227000 0.500000 0.078250
0.285750 0.500000 0.078250
0.344500 0.500000 0.078250
0.403250 0.500000 0.078250
0.462000 0.500000 0.078250
0.520750 0.500000 0.078250
0.579500 0.500000 0.078250
0.638250 0.500000 0.078250
0.697000 0.500000 0.078250
0.755750 0.500000 0.078250
0.814500 0.500000 0.078250
0.873250 0.500000 0.078250
0.932000 0.500000 0.078250
0.000000 0.562500 0.078250
0.050750 0.562500 0.078250
0.109500 0.562500 0.078250
0.168250 0.562500 0.078250
0.227000 0.562500 0.078250
0.285750 0.562500 0.078250
0.344500 0.562500 0.078250
0.403250 0.562500 0.078250
0.462000 0.562500 0.078250
0.520750 0.562500 0.078250
0.579500 0.562500 0.078250
0.638250 0.562500 0.078250
0.697000 0.562500 0.078250
0.755750 0.562500 0.078250
0.814500 0.562500 0.078250
0.873250 0.562500 0.078250
0.932000 0.562500 0.078250
0.000000 0.625000 0.078250
0.050750 0.625000 0.078250
0.109500 0.625000 0.078250
0.168250 0.625000 0.078250
0.227000 0.625000 0.078250
0.285750 0.625000 0.078250
0.344500 0.625000 0.078250
0.403250 0.625000 0.078250
0.462000 0.625000 0.078250
0.520750 0.625000 0.078250
0.579500 0.625000 0.078250
0.638250 0.625000 0.078250
0.697000 0.625000 0.078250
0.755750 0.625000 0.078250
0.814500 0.625000 0.078250
0.873250 0.625000 0.078250
0.932000 0.625000 0.078250
0.000000 0.687500 0.078250
0.050750 0.687500 0.078250
0.109500 0.687500 0.078250
0.168250 0.687500 0.078250
0.227000 0.687500 0.078250
0.285750 0.687500 0.078250
0.344500 0.687500 0.078250
0.403250 0.687500 0.078250
0.462000 0.687500 0.078250
0.520750 0.687500 0.078250
0.579500 0.687500 0.078250
0.638250 0.687500 0.078250
0.697000 0.687500 0.078250
0.755750 0.687500 0.078250
0.814500 0.687500 0.078250
0.873250 0.687500 0.078250
0.932000 0.687500 0.078250
0.000000 0.750000 0.078250
0.050750 0.750000 0.078250
0.109500 0.750000 0.078250
0.168250 0.750000 0.078250
0.227000 0.750000 0.078250
0.285750 0.750000 0.078250
0.344500 0.750000 0.078250
0.403250 0.750000 0.078250
0.462000 0.750000 0.078250
0.520750 0.750000 0.078250
0.579500 0.750000 0.078250
0.638250 0.750000 0.078250
0.697000 0.750000 0.078250
0.755750 0.750000 0.078250
0.814500 0.750000 0.078250
0.873250 0.750000 0.078250
0.932000 0.750000 0.078250
0.000000 0.812500 0.078250
0.050750 0.812500 0.078250
0.109500 0.812500 0.078250
0.168250 0.812500 0.078250
0.227000 0.812500 0.078250
0.285750 0.812500 0.078250
0.344500 0.812500 0.078250
0.403250 0.812500 0.078250
0.462000 0.812500 0.078250
0.520750 0.812500 0.078250
0.579500 0.812500 0.078250
0.638250 0.812500 0.078250
0.697000 0.812500 0.078250
0.755750 0.812500 0.078250
0.814500 0.812500 0.078250
0.873250 0.812500 0.078250
0.932000 0.812500 0.078250
0.000000 0.875000 0.078250
0.050750 0.875000 0.078250
0.109500 0.875000 0.078250
0.168250 0.875000 0.078250
0.227000 0.875000 0.078250
0.285750 0.875000 0.078250
0.344500 0.875000 0.078250
0.403250 0.875000 0.078250
0.462000 0.875000 0.078250
0.520750 0.875000 0.078250
0.579500 0.875000 0.078250
0.638250 0.875000 0.078250
0.697000 0.875000 0.078250
0.755750 0.875000 0.078250
0.814500 0.875000 0.078250
0.873250 0.875000 0.078250
0.932000 0.875000 0.078250
0.000000 0.937500 0.078250
0.050750 0.937500 0.078250
0.109500 0.937500 0.078250
0.168250 0.937500 0.078250
0.227000 0.937500 0.078250
0.285750 0.937500 0.078250
0.344500 0.937500 0.078250
0.403250 0.937500 0.078250
0.462000 0.937500 0.078250
0.520750 0.937500 0.078250
0.579500 0.937500 0.078250
0.638250 0.937500 0.078250
0.697000 0.937500 0.078250
0.755750 0.937500 0.078250
0.814500 0.937500 0.078250
0.873250 0.937500 0.078250
0.932000 0.937500 0.078250
0.000000 1.000000 0.078250
0.050750 1.000000 0.078250
0.109500 1.000000 0.078250
0.168250 1.000000 0.078250
0.227000 1.000000 0.078250
0.285750 1.000000 0.078250
0.344500 1.000000 0.078250
0.403250 1.000000 0.078250
0.462000 1.000000 0.078250
0.520750 1.000000 0.078250
0.579500 1.000000 0.078250
0.638250 1.000000 0.078250
0.697000 1.000000 0.078250
0.755750 1.000000 0.078250
0.814500 1.000000 0.078250
0.873250 1.000000 0.078250
0.932000 1.000000 0.078250
0.000000 0.000000 0.144500
0.050750 0.000000 0.144500
0.109500 0.000000 0.144500
0.168250 0.000000 0.144500
0.227000 0.000000 0.144500
0.285750 0.000000 0.144500
0.344500 0.000000 0.144500
0.403250 0.000000 0.144500
0.462000 0.000000 0.144500
0.520750 0.000000 0.144500
0.579500 0.000000 0.144500
0.638250 0.000000 0.144500
0.697000 0.000000 0.144500
0.755750 0.000000 0.144500
0.814500 0.000000 0.144500
0.873250 0.000000 0.144500
0.932000 0.000000 0.144500
0.000000 0.062500 0.144500
0.050750 0.062500 0.144500
0.109500 0.062500 0.144500
0.168250 0.062500 0.144500
0.227000 0.062500 0.144500
0.285750 0.062500 0.144500
0.344500 0.062500 0.144500
0.403250 0.062500 0.144500
0.462000 0.062500 0.144500
0.520750 0.062500 0.144500
0.579500 0.062500 0.144500
0.638250 0.062500 0.144500
0.697000 0.062500 0.144500
0.755750 0.062500 0.144500
0.814500 0.062500 0.144500
0.873250 0.062500 0.144500
0.932000 0.062500 0.144500
0.000000 0.125000 0.144500
0.050750 0.125000 0.144500
0.109500 0.125000 0.144500
0.168250 0.125000 0.144500
0.227000 0.125000 0.144500
0.285750 0.125000 0.144500
0.344500 0.125000 0.144500
0.403250 0.125000 0.144500
0.462000 0.125000 0.144500
0.520750 0.125000 0.144500
0.579500 0.125000 0.144500
0.638250 0.125000 0.144500
0.697000 0.125000 0.144500
0.755750 0.125000 0.144500
0.814500 0.125000 0.144500
0.873250 0.125000 0.144500
0.932000 0.125000 0.144500
0.000000 0.187500 0.144500
0.050750 0.187500 0.144500
0.109500 0.187500 0.144500
0.168250 0.187500 0.144500
0.227000 0.187500 0.144500
0.285750 0.187500 0.144500
0.344500 0.187500 0.144500
0.403250 0.187500 0.144500
0.462000 0.187500 0.144500
0.520750 0.187500 0.144500
0.579500 0.187500 0.144500
0.638250 0.187500 0.144500
0.697000 0.187500 0.144500
0.755750 0.187500 0.144500
0.814500 0.187500 0.144500
0.873250 0.187500 0.144500
0.932000 0.187500 0.144500
0.000000 0.250000 0.144500
0.050750 0.250000 0.144500
0.109500 0.250000 0.144500
0.168250 0.250000 0.144500
0.227000 0.250000 0.144500
0.285750 0.250000 0.144500
0.344500 0.250000 0.144500
0.403250 0.250000 0.144500
0.462000 0.250000 0.144500
0.520750 0.250000 0.144500
0.579500 0.250000 0.144500
0.638250 0.250000 0.144500
0.697000 0.250000 0.144500
0.755750 0.250000 0.144500
0.814500 0.250000 0.144500
0.873250 0.250000 0.144500
0.932000 0.250000 0.144500
0.000000 0.312500 0.144500
0.050750 0.312500 0.144500
0.109500 0.312500 0.144500
0.168250 0.312500 0.144500
0.227000 0.312500 0.144500
0.285750 0.312500 0.144500
0.344500 0.312500 0.144500
0.403250 0.312500 0.144500
0.462000 0.312500 0.144500
0.520750 0.312500 0.144500
0.579500 0.312500 0.144500
0.638250 0.312500 0.144500
0.697000 0.312500 0.144500
0.755750 0.312500 0.144500
0.814500 0.312500 0.144500
0.873250 0.312500 0.144500
0.932000 0.312500 0.144500
0.000000 0.375000 0.144500
0.050750 0.375000 0.144500
0.109500 0.375000 0.144500
0.168250 0.375000 0.144500
0.227000 0.375000 0.144500
0.285750 0.375000 0.144500
0.344500 0.375000 0.144500
0.403250 0.375000 0.144500
0.462000 0.375000 0.144500
0.520750 0.375000 0.144500
0.579500 0.375000 0.144500
0.638250 0.375000 0.144500
0.697000 0.375000 0.144500
0.755750 0.375000 0.144500
0.814500 0.375000 0.144500
0.873250 0.375000 0.144500
0.932000 0.375000 0.144500
0.000000 0.437500 0.144500
0.050750 0.437500 0.144500
0.109500 0.437500 0.144500
0.168250 0.437500 0.144500
0.227000 0.437500 0.144500
0.285750 0.437500 0.144500
0.344500 0.437500 0.144500
0.403250 0.437500 0.144500
0.462000 0.437500 0.144500
0.520750 0.437500 0.144500
0.579500 0.437500 0.144500
0.638250 0.437500 0.144500
0.697000 0.437500 0.144500
0.755750 0.437500 0.144500
0.814500 0.437500 0.144500
0.873250 0.437500 0.144500
0.932000 0.437500 0.144500
0.000000 0.500000 0.144500
0.050750 0.500000 0.144500
0.109500 0.500000 0.144500
0.168250 0.500000 0.144500
0.227000 0.500000 0.144500
0.285750 0.500000 0.144500
0.344500 0.500000 0.144500
0.403250 0.500000 0.144500
0.462000 0.500000 0.144500
0.520750 0.500000 0.144500
0.579500 0.500000 0.144500
0.638250 0.500000 0.144500
0.697000 0.500000 0.144500
0.755750 0.500000 0.144500
0.814500 0.500000 0.144500
0.873250 0.500000 0.144500
0.932000 0.500000 0.144500
0.000000 0.562500 0.144500
0.050750 0.562500 0.144500
0.109500 0.562500 0.144500
0.168250 0.562500 0.144500
0.227000 0.562500 0.144500
0.285750 0.562500 0.144500
0.344500 0.562500 0.144500
0.403250 0.562500 0.144500
0.462000 0.562500 0.144500
0.520750 0.562500 0.144500
0.579500 0.562500 0.144500
0.638250 0.562500 0.144500
0.697000 0.562500 0.144500
0.755750 0.562500 0.144500
0.814500 0.562500 0.144500
0.873250 0.562500 0.144500
0.932000 0.562500 0.144500
0.000000 0.625000 0.144500
0.050750 0.625000 0.144500
0.109500 0.625000 0.144500
0.168250 0.625000 0.144500
0.227000 0.625000 0.144500
0.285750 0.625000 0.144500
0.344500 0.625000 0.144500
0.403250 0.625000 0.144500
0.462000 0.625000 0.144500
0.520750 0.625000 0.144500
0.579500 0.625000 0.144500
0.638250 0.625000 0.144500
0.697000 0.625000 0.144500
0.755750 0.625000 0.144500
0.814500 0.625000 0.144500
0.873250 0.625000 0.144500
0.932000 0.625000 0.144500
0.000000 0.687500 0.144500
0.050750 0.687500 0.144500
0.109500 0.687500 0.144500
0.168250 0.687500 0.144500
0.227000 0.687500 0.144500
0.285750 0.687500 0.144500
0.344500 0.687500 0.144500
0.403250 0.687500 0.144500
0.462000 0.687500 0.144500
0.520750 0.687500 0.144500
0.579500 0.687500 0.144500
0.638250 0.687500 0.144500
0.697000 0.687500 0.144500
0.755750 0.687500 0.144500
0.814500 0.687500 0.144500
0.873250 0.687500 0.144500
0.932000 0.687500 0.144500
0.000000 0.750000 0.144500
0.050750 0.750000 0.144500
0.109500 0.750000 0.144500
0.168250 0.750000 0.144500
0.227000 0.750000 0.144500
0.285750 0.750000 0.144500
0.344500 0.750000 0.144500
0.403250 0.750000 0.144500
0.462000 0.750000 0.144500
0.520750 0.750000 0.144500
0.579500 0.750000 0.144500
0.638250 0.750000 0.144500
0.697000 0.750000 0.144500
0.755750 0.750000 0.144500
0.814500 0.750000 0.144500
0.873250 0.750000 0.144500
0.932000 0.750000 0.144500
0.000000 0.812500 0.144500
0.050750 0.812500 0.144500
0.109500 0.812500 0.144500
0.168250 0.812500 0.144500
0.227000 0.812500 0.144500
0.285750 0.812500 0.144500
0.344500 0.812500 0.144500
0.403250 0.812500 0.144500
0.462000 0.812500 0.144500
0.520750 0.812500 0.144500
0.579500 0.812500 0.144500
0.638250 0.812500 0.144500
0.697000 0.812500 0.144500
0.755750 0.812500 0.144500
0.814500 0.812500 0.144500
0.873250 0.812500 0.144500
0.932000 0.812500 0.144500
0.000000 0.875000 0.144500
0.050750 0.875000 0.144500
0.109500 0.875000 0.144500
0.168250 0.875000 0.144500
0.227000 0.875000 0.144500
0.285750 0.875000 0.144500
0.344500 0.875000 0.144500
0.403250 0.875000 0.144500
0.462000 0.875000 0.144500
0.520750 0.875000 0.144500
0.579500 0.875000 0.144500
0.638250 0.875000 0.144500
0.697000 0.875000 0.144500
0.755750 0.875000 0.144500
0.814500 0.875000 0.144500
0.873250 0.875000 0.144500
0.932000 0.875000 0.144500
0.000000 0.937500 0.144500
0.050750 0.937500 0.144500
0.109500 0.937500 0.144500
0.168250 0.937500 0.144500
0.227000 0.937500 0.144500
0.285750 0.937500 0.144500
0.344500 0.937500 0.144500
0.403250 0.937500 0.144500
0.462000 0.937500 0.144500
0.520750 0.937500 0.144500
0.579500 0.937500 0.144500
0.638250 0.937500 0.144500
0.697000 0.937500 0.144500
0.755750 0.937500 0.144500
0.814500 0.937500 0.144500
0.873250 0.937500 0.144500
0.932000 0.937500 0.144500
0.000000 1.000000 0.144500
0.050750 1.000000 0.144500
0.109500 1.000000 0.144500
0.168250 1.000000 0.144500
0.227000 1.000000 0.144500
0.285750 1.000000 0.144500
0.344500 1.000000 0.144500
0.403250 1.000000 0.144500
0.462000 1.000000 0.144500
0.520750 1.000000 0.144500
0.579500 1.000000 0.144500
0.638250 1.000000 0.144500
0.697000 1.000000 0.144500
0.755750 1.000000 0.144500
0.814500 1.000000 0.144500
0.873250 1.000000 0.144500
0.932000 1.000000 0.144500
0.000000 0.000000 0.210750
0.050750 0.000000 0.210750
0.109500 0.000000 0.210750
0.168250 0.000000 0.210750
0.227000 0.000000 0.210750
0.285750 0.000000 0.210750
0.344500 0.000000 0.210750
0.403250 0.000000 0.210750
0.462000 0.000000 0.210750
0.520750 0.000000 0.210750
0.579500 0.000000 0.210750
0.638250 0.000000 0.210750
0.697000 0.000000 0.210750
0.755750 0.000000 0.210750
