PRISM/Resources/LUTs/Film.cube
# Film.cube — PRISM bundled LUT: Lifted blacks, gentle S-curve, slight desaturation.
# Licensed under the Apache License, Version 2.0.
TITLE "Film"
LUT_3D_SIZE 17
DOMAIN_MIN 0.000000 0.000000 0.000000
DOMAIN_MAX 1.000000 1.000000 1.000000
0.031312 0.031312 0.031312
0.074269 0.032523 0.032523
0.122581 0.033884 0.033884
0.175441 0.035373 0.035373
0.232040 0.036968 0.036968
0.291568 0.038645 0.038645
0.353218 0.040382 0.040382
0.416181 0.042156 0.042156
0.479647 0.043944 0.043944
0.542808 0.045723 0.045723
0.604856 0.047472 0.047472
0.664982 0.049166 0.049166
0.722376 0.050783 0.050783
0.776231 0.052300 0.052300
0.825738 0.053695 0.053695
0.870087 0.054944 0.054944
0.908471 0.056026 0.056026
0.035384 0.077130 0.035384
0.078340 0.078340 0.036594
0.126653 0.079701 0.037955
0.179513 0.081191 0.039445
0.236111 0.082785 0.041039
0.295640 0.084462 0.042716
0.357290 0.086199 0.044453
0.420252 0.087973 0.046227
0.483718 0.089761 0.048015
0.546880 0.091541 0.049795
0.608928 0.093289 0.051543
0.669053 0.094983 0.053237
0.726448 0.096600 0.054854
0.780303 0.098117 0.056371
0.829809 0.099512 0.057766
0.874159 0.100762 0.059016
0.912542 0.101843 0.060097
0.039963 0.128660 0.039963
0.082919 0.129871 0.041173
0.131232 0.131232 0.042534
0.184092 0.132721 0.044024
0.240690 0.134316 0.045618
0.300219 0.135993 0.047295
0.361869 0.137730 0.049032
0.424831 0.139504 0.050806
0.488297 0.141292 0.052594
0.551459 0.143071 0.054374
0.613507 0.144819 0.056122
0.673632 0.146513 0.057816
0.731027 0.148130 0.059433
0.784882 0.149648 0.060950
0.834388 0.151043 0.062345
0.878738 0.152292 0.063595
0.917121 0.153373 0.064676
0.044973 0.185041 0.044973
0.087929 0.186251 0.046183
0.136242 0.187612 0.047544
0.189102 0.189102 0.049034
0.245700 0.190696 0.050628
0.305229 0.192373 0.052305
0.366879 0.194110 0.054042
0.429841 0.195884 0.055816
0.493307 0.197672 0.057604
0.556469 0.199452 0.059384
0.618517 0.201200 0.061132
0.678642 0.202894 0.062826
0.736037 0.204511 0.064443
0.789892 0.206028 0.065960
0.839398 0.207423 0.067355
0.883748 0.208673 0.068605
0.922131 0.209754 0.069686
0.050337 0.245409 0.050337
0.093294 0.246620 0.051548
0.141606 0.247981 0.052909
0.194466 0.249470 0.054398
0.251065 0.251065 0.055993
0.310593 0.252742 0.057670
0.372243 0.254479 0.059407
0.435205 0.256253 0.061181
0.498672 0.258041 0.062969
0.561833 0.259820 0.064748
0.623881 0.261568 0.066496
0.684007 0.263262 0.068190
0.741401 0.264879 0.069807
0.795256 0.266397 0.071325
0.844763 0.267792 0.072720
0.889112 0.269041 0.073969
0.927495 0.270122 0.075050
0.055979 0.308903 0.055979
0.098936 0.310113 0.057190
0.147248 0.311474 0.058551
0.200108 0.312963 0.060040
0.256707 0.314558 0.061635
0.316235 0.316235 0.063312
0.377885 0.317972 0.065049
0.440848 0.319746 0.066823
0.504314 0.321534 0.068611
0.567475 0.323314 0.070390
0.629523 0.325062 0.072138
0.689649 0.326756 0.073832
0.747043 0.328373 0.075450
0.800898 0.329890 0.076967
0.850405 0.331285 0.078362
0.894754 0.332535 0.079611
0.933138 0.333616 0.080693
0.061823 0.374659 0.061823
0.104779 0.375869 0.063033
0.153091 0.377230 0.064394
0.205951 0.378720 0.065883
0.262550 0.380314 0.067478
0.322078 0.381991 0.069155
0.383728 0.383728 0.070892
0.446691 0.385502 0.072666
0.510157 0.387290 0.074454
0.573318 0.389070 0.076233
0.635366 0.390818 0.077982
0.695492 0.392512 0.079676
0.752886 0.394129 0.081293
0.806741 0.395646 0.082810
0.856248 0.397041 0.084205
0.900597 0.398291 0.085454
0.938981 0.399372 0.086536
0.067790 0.441815 0.067790
0.110746 0.443025 0.069000
0.159059 0.444386 0.070362
0.211919 0.445876 0.071851
0.268517 0.447470 0.073445
0.328046 0.449147 0.075123
0.389696 0.450884 0.076859
0.452658 0.452658 0.078633
0.516125 0.454446 0.080422
0.579286 0.456226 0.082201
0.641334 0.457974 0.083949
0.701459 0.459668 0.085643
0.758854 0.461285 0.087260
0.812709 0.462802 0.088778
0.862215 0.464197 0.090172
0.906565 0.465447 0.091422
0.944948 0.466528 0.092503
0.073805 0.509508 0.073805
0.116762 0.510719 0.075016
0.165074 0.512080 0.076377
0.217934 0.513569 0.077866
0.274533 0.515164 0.079461
0.334061 0.516841 0.081138
0.395711 0.518578 0.082875
0.458674 0.520352 0.084649
0.522140 0.522140 0.086437
0.585301 0.523919 0.088216
0.647349 0.525667 0.089964
0.707475 0.527361 0.091658
0.764869 0.528979 0.093276
0.818724 0.530496 0.094793
0.868231 0.531891 0.096188
0.912580 0.533140 0.097437
0.950964 0.534222 0.098519
0.079792 0.576877 0.079792
0.122748 0.578087 0.081002
0.171061 0.579448 0.082363
0.223920 0.580937 0.083852
0.280519 0.582532 0.085447
0.340048 0.584209 0.087124
0.401698 0.585946 0.088861
0.464660 0.587720 0.090635
0.528126 0.589508 0.092423
0.591288 0.591288 0.094203
0.653336 0.593036 0.095951
0.713461 0.594730 0.097645
0.770856 0.596347 0.099262
0.824711 0.597864 0.100779
0.874217 0.599259 0.102174
0.918566 0.600508 0.103424
0.956950 0.601590 0.104505
0.085673 0.643057 0.085673
0.128629 0.644268 0.086883
0.176941 0.645629 0.088244
0.229801 0.647118 0.089733
0.286400 0.648713 0.091328
0.345929 0.650390 0.093005
0.407578 0.652127 0.094742
0.470541 0.653901 0.096516
0.534007 0.655689 0.098304
0.597169 0.657468 0.100084
0.659216 0.659216 0.101832
0.719342 0.660910 0.103526
0.776737 0.662527 0.105143
0.830591 0.664045 0.106660
0.880098 0.665440 0.108055
0.924447 0.666689 0.109304
0.962831 0.667770 0.110386
0.091371 0.707188 0.091371
0.134328 0.708398 0.092582
0.182640 0.709759 0.093943
0.235500 0.711248 0.095432
0.292099 0.712843 0.097027
0.351627 0.714520 0.098704
0.413277 0.716257 0.100441
0.476239 0.718031 0.102215
0.539706 0.719819 0.104003
0.602867 0.721599 0.105782
0.664915 0.723347 0.107530
0.725041 0.725041 0.109224
0.782435 0.726658 0.110841
0.836290 0.728175 0.112359
0.885797 0.729570 0.113754
0.930146 0.730819 0.115003
0.968530 0.731901 0.116084
0.096811 0.768405 0.096811
0.139768 0.769615 0.098021
0.188080 0.770976 0.099383
0.240940 0.772466 0.100872
0.297538 0.774060 0.102466
0.357067 0.775737 0.104144
0.418717 0.777474 0.105881
0.481679 0.779248 0.107654
0.545146 0.781036 0.109443
0.608307 0.782816 0.111222
0.670355 0.784564 0.112970
0.730481 0.786258 0.114664
0.787875 0.787875 0.116281
0.841730 0.789392 0.117799
0.891236 0.790787 0.119193
0.935586 0.792037 0.120443
0.973969 0.793118 0.121524
0.101916 0.825847 0.101916
0.144872 0.827057 0.103126
0.193184 0.828418 0.104487
0.246044 0.829908 0.105976
0.302643 0.831502 0.107571
0.362171 0.833179 0.109248
0.423821 0.834916 0.110985
0.486784 0.836690 0.112759
0.550250 0.838478 0.114547
0.613411 0.840258 0.116326
0.675459 0.842006 0.118075
0.735585 0.843700 0.119769
0.792979 0.845317 0.121386
0.846834 0.846834 0.122903
0.896341 0.848229 0.124298
0.940690 0.849479 0.125547
0.979074 0.850560 0.126629
0.106608 0.878651 0.106608
0.149564 0.879861 0.107818
0.197877 0.881222 0.109179
0.250736 0.882711 0.110668
0.307335 0.884306 0.112263
0.366864 0.885983 0.113940
0.428513 0.887720 0.115677
0.491476 0.889494 0.117451
0.554942 0.891282 0.119239
0.618104 0.893062 0.121019
0.680151 0.894810 0.122767
0.740277 0.896504 0.124461
0.797672 0.898121 0.126078
0.851527 0.899638 0.127595
0.901033 0.901033 0.128990
0.945382 0.902283 0.130239
0.983766 0.903364 0.131321
0.110811 0.925954 0.110811
0.153767 0.927164 0.112021
0.202080 0.928525 0.113383
0.254940 0.930015 0.114872
0.311538 0.931609 0.116466
0.371067 0.933287 0.118144
0.432717 0.935023 0.119881
0.495679 0.936797 0.121654
0.559146 0.938585 0.123443
0.622307 0.940365 0.125222
0.684355 0.942113 0.126970
0.744480 0.943807 0.128664
0.801875 0.945424 0.130281
0.855730 0.946941 0.131799
0.905236 0.948336 0.133193
0.949586 0.949586 0.134443
0.987969 0.950667 0.135524
0.114449 0.966894 0.114449
0.157405 0.968104 0.115659
0.205718 0.969466 0.117021
0.258578 0.970955 0.118510
0.315176 0.972549 0.120104
0.374705 0.974227 0.121782
0.436355 0.975964 0.123519
0.499317 0.977737 0.125292
0.562784 0.979526 0.127081
0.625945 0.981305 0.128860
0.687993 0.983053 0.130608
0.748118 0.984747 0.132302
0.805513 0.986364 0.133919
0.859368 0.987882 0.135437
0.908874 0.989276 0.136831
0.953224 0.990526 0.138081
0.991607 0.991607 0.139162
0.031723 0.031723 0.073470
0.074680 0.032934 0.074680
0.122992 0.034295 0.076041
0.175852 0.035784 0.077530
0.232451 0.037379 0.079125
0.291979 0.039056 0.080802
0.353629 0.040793 0.082539
0.416592 0.042567 0.084313
0.480058 0.044355 0.086101
0.543219 0.046134 0.087881
0.605267 0.047883 0.089629
0.665393 0.049577 0.091323
0.722787 0.051194 0.092940
0.776642 0.052711 0.094457
0.826149 0.054106 0.095852
0.870498 0.055355 0.097101
0.908882 0.056437 0.098183
0.035795 0.077541 0.077541
0.078751 0.078751 0.078751
0.127064 0.080112 0.080112
0.179924 0.081602 0.081602
0.236522 0.083196 0.083196
0.296051 0.084873 0.084873
0.357701 0.086610 0.086610
0.420663 0.088384 0.088384
0.484129 0.090172 0.090172
0.547291 0.091952 0.091952
0.609339 0.093700 0.093700
0.669464 0.095394 0.095394
0.726859 0.097011 0.097011
0.780714 0.098528 0.098528
0.830220 0.099923 0.099923
0.874570 0.101173 0.101173
0.912953 0.102254 0.102254
0.040374 0.129071 0.082120
0.083330 0.130282 0.083330
0.131643 0.131643 0.084691
0.184503 0.133132 0.086181
0.241101 0.134727 0.087775
0.300630 0.136404 0.089452
0.362280 0.138141 0.091189
0.425242 0.139915 0.092963
0.488708 0.141703 0.094751
0.551870 0.143482 0.096531
0.613918 0.145230 0.098279
0.674043 0.146924 0.099973
0.731438 0.148541 0.101590
0.785293 0.150059 0.103107
0.834799 0.151454 0.104502
0.879149 0.152703 0.105752
0.917532 0.153784 0.106833
0.045384 0.185452 0.087130
0.088340 0.186662 0.088340
0.136653 0.188023 0.089701
0.189513 0.189513 0.091191
0.246111 0.191107 0.092785
0.305640 0.192784 0.094462
0.367290 0.194521 0.096199
0.430252 0.196295 0.097973
0.493718 0.198083 0.099761
0.556880 0.199863 0.101541
0.618928 0.201611 0.103289
0.679053 0.203305 0.104983
0.736448 0.204922 0.106600
0.790303 0.206439 0.108117
0.839809 0.207834 0.109512
0.884159 0.209084 0.110762
0.922542 0.210165 0.111843
0.050748 0.245820 0.092494
0.093705 0.247031 0.093705
0.142017 0.248392 0.095066
0.194877 0.249881 0.096555
0.251476 0.251476 0.098150
0.311004 0.253153 0.099827
0.372654 0.254890 0.101564
0.435616 0.256664 0.103338
0.499083 0.258452 0.105126
0.562244 0.260231 0.106905
0.624292 0.261979 0.108653
0.684418 0.263673 0.110347
0.741812 0.265290 0.111965
0.795667 0.266808 0.113482
0.845174 0.268203 0.114877
0.889523 0.269452 0.116126
0.927906 0.270533 0.117208
0.056390 0.309314 0.098136
0.099347 0.310524 0.099347
0.147659 0.311885 0.100708
0.200519 0.313374 0.102197
0.257118 0.314969 0.103792
0.316646 0.316646 0.105469
0.378296 0.318383 0.107206
0.441259 0.320157 0.108980
0.504725 0.321945 0.110768
0.567886 0.323725 0.112547
0.629934 0.325473 0.114296
0.690060 0.327167 0.115990
0.747454 0.328784 0.117607
0.801309 0.330301 0.119124
0.850816 0.331696 0.120519
0.895165 0.332946 0.121768
0.933549 0.334027 0.122850
0.062234 0.375070 0.103980
0.105190 0.376280 0.105190
0.153502 0.377641 0.106551
0.206362 0.379131 0.108040
0.262961 0.380725 0.109635
0.322489 0.382402 0.111312
0.384139 0.384139 0.113049
0.447102 0.385913 0.114823
0.510568 0.387701 0.116611
0.573729 0.389481 0.118391
0.635777 0.391229 0.120139
0.695903 0.392923 0.121833
0.753297 0.394540 0.123450
0.807152 0.396057 0.124967
0.856659 0.397452 0.126362
0.901008 0.398702 0.127611
0.939392 0.399783 0.128693
0.068201 0.442226 0.109947
0.111157 0.443436 0.111157
0.159470 0.444797 0.112519
0.212330 0.446287 0.114008
0.268928 0.447881 0.115602
0.328457 0.449558 0.117280
0.390107 0.451295 0.119017
0.453069 0.453069 0.120791
0.516536 0.454857 0.122579
0.579697 0.456637 0.124358
0.641745 0.458385 0.126106
0.701870 0.460079 0.127800
0.759265 0.461696 0.129417
0.813120 0.463213 0.130935
0.862626 0.464608 0.132329
0.906976 0.465858 0.133579
0.945359 0.466939 0.134660
0.074216 0.509919 0.115962
0.117173 0.511130 0.117173
0.165485 0.512491 0.118534
0.218345 0.513980 0.120023
0.274944 0.515575 0.121618
0.334472 0.517252 0.123295
0.396122 0.518989 0.125032
0.459085 0.520763 0.126806
0.522551 0.522551 0.128594
0.585712 0.524330 0.130373
0.647760 0.526079 0.132122
0.707886 0.527772 0.133816
0.765280 0.529390 0.135433
0.819135 0.530907 0.136950
0.868642 0.532302 0.138345
0.912991 0.533551 0.139594
0.951375 0.534633 0.140676
0.080203 0.577288 0.121949
0.123159 0.578498 0.123159
0.171472 0.579859 0.124520
0.224332 0.581348 0.126010
0.280930 0.582943 0.127604
0.340459 0.584620 0.129281
0.402109 0.586357 0.131018
0.465071 0.588131 0.132792
0.528537 0.589919 0.134580
0.591699 0.591699 0.136360
0.653747 0.593447 0.138108
0.713872 0.595141 0.139802
0.771267 0.596758 0.141419
0.825122 0.598275 0.142936
0.874628 0.599670 0.144331
0.918977 0.600919 0.145581
0.957361 0.602001 0.146662
0.086084 0.643468 0.127830
0.129040 0.644679 0.129040
0.177352 0.646040 0.130401
0.230212 0.647529 0.131890
0.286811 0.649124 0.133485
0.346340 0.650801 0.135162
0.407989 0.652538 0.136899
0.470952 0.654312 0.138673
0.534418 0.656100 0.140461
0.597580 0.657879 0.142241
0.659627 0.659627 0.143989
0.719753 0.661321 0.145683
0.777148 0.662938 0.147300
0.831002 0.664456 0.148817
0.880509 0.665851 0.150212
0.924858 0.667100 0.151461
0.963242 0.668181 0.152543
0.091782 0.707599 0.133528
0.134739 0.708809 0.134739
0.183051 0.710170 0.136100
0.235911 0.711659 0.137589
0.292510 0.713254 0.139184
0.352038 0.714931 0.140861
0.413688 0.716668 0.142598
0.476651 0.718442 0.144372
0.540117 0.720230 0.146160
0.603278 0.722010 0.147939
0.665326 0.723758 0.149688
0.725452 0.725452 0.151382
0.782846 0.727069 0.152999
0.836701 0.728586 0.154516
0.886208 0.729981 0.155911
0.930557 0.731230 0.157160
0.968941 0.732312 0.158242
0.097222 0.768816 0.138968
0.140179 0.770026 0.140179
0.188491 0.771387 0.141540
0.241351 0.772877 0.143029
0.297949 0.774471 0.144624
0.357478 0.776148 0.146301
0.419128 0.777885 0.148038
0.482090 0.779659 0.149812
0.545557 0.781447 0.151600
0.608718 0.783227 0.153379
0.670766 0.784975 0.155127
0.730892 0.786669 0.156821
0.788286 0.788286 0.158438
0.842141 0.789803 0.159956
0.891647 0.791198 0.161351
0.935997 0.792448 0.162600
0.974380 0.793529 0.163681
0.102327 0.826258 0.144073
0.145283 0.827468 0.145283
0.193595 0.828829 0.146644
0.246455 0.830319 0.148133
0.303054 0.831913 0.149728
0.362582 0.833590 0.151405
0.424232 0.835327 0.153142
0.487195 0.837101 0.154916
0.550661 0.838889 0.156704
0.613822 0.840669 0.158484
0.675870 0.842417 0.160232
0.735996 0.844111 0.161926
0.793390 0.845728 0.163543
0.847245 0.847245 0.165060
0.896752 0.848640 0.166455
0.941101 0.849890 0.167704
0.979485 0.850971 0.168786
0.107019 0.879062 0.148765
0.149975 0.880272 0.149975
0.198288 0.881633 0.151336
0.251147 0.883123 0.152826
0.307746 0.884717 0.154420
0.367275 0.886394 0.156097
0.428924 0.888131 0.157834
0.491887 0.889905 0.159608
0.555353 0.891693 0.161396
0.618515 0.893473 0.163176
0.680562 0.895221 0.164924
0.740688 0.896915 0.166618
0.798083 0.898532 0.168235
0.851938 0.900049 0.169752
0.901444 0.901444 0.171147
0.945793 0.902694 0.172397
0.984177 0.903775 0.173478
0.111222 0.926365 0.152968
0.154178 0.927575 0.154178
0.202491 0.928936 0.155540
0.255351 0.930426 0.157029
0.311949 0.932020 0.158624
0.371478 0.933698 0.160301
0.433128 0.935434 0.162038
0.496090 0.937208 0.163812
0.559557 0.938996 0.165600
0.622718 0.940776 0.167379
0.684766 0.942524 0.169127
0.744891 0.944218 0.170821
0.802286 0.945835 0.172438
0.856141 0.947352 0.173956
0.905647 0.948747 0.175350
0.949997 0.949997 0.176600
0.988380 0.951078 0.177681
0.114860 0.967305 0.156606
0.157816 0.968515 0.157816
0.206129 0.969877 0.159178
0.258989 0.971366 0.160667
0.315587 0.972960 0.162262
0.375116 0.974638 0.163939
0.436766 0.976375 0.165676
0.499728 0.978148 0.167450
0.563195 0.979937 0.169238
0.626356 0.981716 0.171017
0.688404 0.983464 0.172765
0.748529 0.985158 0.174459
0.805924 0.986775 0.176076
0.859779 0.988293 0.177594
0.909285 0.989687 0.178988
0.953635 0.990937 0.180238
0.992018 0.992018 0.181319
0.032186 0.032186 0.120883
0.075142 0.033396 0.122093
0.123455 0.034757 0.123455
0.176314 0.036246 0.124944
0.232913 0.037841 0.126538
0.292442 0.039518 0.128216
0.354091 0.041255 0.129953
0.417054 0.043029 0.131726
0.480520 0.044817 0.133515
0.543682 0.046597 0.135294
0.605729 0.048345 0.137042
0.665855 0.050039 0.138736
0.723250 0.051656 0.140353
0.777105 0.053173 0.141871
0.826611 0.054568 0.143265
0.870960 0.055817 0.144515
0.909344 0.056899 0.145596
0.036257 0.078003 0.124955
0.079213 0.079213 0.126165
0.127526 0.080575 0.127526
0.180386 0.082064 0.129015
0.236984 0.083659 0.130610
0.296513 0.085336 0.132287
0.358163 0.087073 0.134024
0.421125 0.088847 0.135798
0.484592 0.090635 0.137586
0.547753 0.092414 0.139365
0.609801 0.094162 0.141114
0.669926 0.095856 0.142808
0.727321 0.097473 0.144425
0.781176 0.098991 0.145942
0.830682 0.100385 0.147337
0.875032 0.101635 0.148586
0.913415 0.102716 0.149668
0.040836 0.129534 0.129534
0.083792 0.130744 0.130744
0.132105 0.132105 0.132105
0.184965 0.133594 0.133594
0.241563 0.135189 0.135189
0.301092 0.136866 0.136866
0.362742 0.138603 0.138603
0.425704 0.140377 0.140377
0.489171 0.142165 0.142165
0.552332 0.143944 0.143944
0.614380 0.145693 0.145693
0.674505 0.147387 0.147387
0.731900 0.149004 0.149004
0.785755 0.150521 0.150521
0.835261 0.151916 0.151916
0.879611 0.153165 0.153165
0.917994 0.154247 0.154247
0.045846 0.185914 0.134544
0.088803 0.187124 0.135754
0.137115 0.188486 0.137115
0.189975 0.189975 0.138604
0.246573 0.191569 0.140199
0.306102 0.193247 0.141876
0.367752 0.194984 0.143613
0.430714 0.196757 0.145387
0.494181 0.198546 0.147175
0.557342 0.200325 0.148955
0.619390 0.202073 0.150703
0.679516 0.203767 0.152397
0.736910 0.205384 0.154014
0.790765 0.206902 0.155531
0.840271 0.208296 0.156926
0.884621 0.209546 0.158175
0.923004 0.210627 0.159257
0.051211 0.246283 0.139908
0.094167 0.247493 0.141118
0.142479 0.248854 0.142479
0.195339 0.250343 0.143969
0.251938 0.251938 0.145563
0.311466 0.253615 0.147240
0.373116 0.255352 0.148977
0.436079 0.257126 0.150751
0.499545 0.258914 0.152539
0.562706 0.260693 0.154319
0.624754 0.262442 0.156067
0.684880 0.264136 0.157761
0.742274 0.265753 0.159378
0.796129 0.267270 0.160895
0.845636 0.268665 0.162290
0.889985 0.269914 0.163540
0.928369 0.270996 0.164621
0.056853 0.309776 0.145550
0.099809 0.310986 0.146760
0.148121 0.312347 0.148121
0.200981 0.313837 0.149611
0.257580 0.315431 0.151205
0.317109 0.317109 0.152883
0.378758 0.318845 0.154619
0.441721 0.320619 0.156393
0.505187 0.322407 0.158181
0.568349 0.324187 0.159961
0.630396 0.325935 0.161709
0.690522 0.327629 0.163403
0.747917 0.329246 0.165020
0.801771 0.330763 0.166537
0.851278 0.332158 0.167932
0.895627 0.333408 0.169182
0.934011 0.334489 0.170263
0.062696 0.375532 0.151393
0.105652 0.376742 0.152603
0.153965 0.378104 0.153965
0.206825 0.379593 0.155454
0.263423 0.381187 0.157049
0.322952 0.382865 0.158726
0.384602 0.384602 0.160463
0.447564 0.386375 0.162237
0.511030 0.388164 0.164025
0.574192 0.389943 0.165804
0.636240 0.391691 0.167552
0.696365 0.393385 0.169246
0.753760 0.395002 0.170863
0.807615 0.396520 0.172381
0.857121 0.397914 0.173775
0.901470 0.399164 0.175025
0.939854 0.400245 0.176106
0.068663 0.442688 0.157361
0.111620 0.443898 0.158571
0.159932 0.445260 0.159932
0.212792 0.446749 0.161421
0.269391 0.448344 0.163016
0.328919 0.450021 0.164693
0.390569 0.451758 0.166430
0.453532 0.453532 0.168204
0.516998 0.455320 0.169992
0.580159 0.457099 0.171772
0.642207 0.458847 0.173520
0.702333 0.460541 0.175214
0.759727 0.462158 0.176831
0.813582 0.463676 0.178348
0.863089 0.465070 0.179743
0.907438 0.466320 0.180992
0.945822 0.467401 0.182074
0.074679 0.510382 0.163376
0.117635 0.511592 0.164586
0.165947 0.512953 0.165947
0.218807 0.514442 0.167437
0.275406 0.516037 0.169031
0.334935 0.517714 0.170709
0.396584 0.519451 0.172445
0.459547 0.521225 0.174219
0.523013 0.523013 0.176007
0.586175 0.524793 0.177787
0.648222 0.526541 0.179535
0.708348 0.528235 0.181229
0.765743 0.529852 0.182846
0.819597 0.531369 0.184363
0.869104 0.532764 0.185758
0.913453 0.534013 0.187008
0.951837 0.535095 0.188089
0.080665 0.577750 0.169362
0.123621 0.578960 0.170573
0.171934 0.580321 0.171934
0.224794 0.581811 0.173423
0.281392 0.583405 0.175018
0.340921 0.585082 0.176695
0.402571 0.586819 0.178432
0.465533 0.588593 0.180206
0.529000 0.590381 0.181994
0.592161 0.592161 0.183773
0.654209 0.593909 0.185522
0.714334 0.595603 0.187216
0.771729 0.597220 0.188833
0.825584 0.598737 0.190350
0.875090 0.600132 0.191745
0.919440 0.601382 0.192994
0.957823 0.602463 0.194076
0.086546 0.643931 0.175243
0.129502 0.645141 0.176454
0.177815 0.646502 0.177815
0.230675 0.647991 0.179304
0.287273 0.649586 0.180899
0.346802 0.651263 0.182576
0.408452 0.653000 0.184313
0.471414 0.654774 0.186087
0.534880 0.656562 0.187875
0.598042 0.658342 0.189654
0.660090 0.660090 0.191402
0.720215 0.661784 0.193096
0.777610 0.663401 0.194713
0.831465 0.664918 0.196231
0.880971 0.666313 0.197626
0.925321 0.667562 0.198875
0.963704 0.668644 0.199956
0.092245 0.708061 0.180942
0.135201 0.709271 0.182152
0.183513 0.710632 0.183513
0.236373 0.712122 0.185003
0.292972 0.713716 0.186597
0.352500 0.715393 0.188274
0.414150 0.717130 0.190011
0.477113 0.718904 0.191785
0.540579 0.720692 0.193573
0.603740 0.722472 0.195353
0.665788 0.724220 0.197101
0.725914 0.725914 0.198795
0.783309 0.727531 0.200412
0.837163 0.729048 0.201929
0.886670 0.730443 0.203324
0.931019 0.731693 0.204574
0.969403 0.732774 0.205655
0.097684 0.769278 0.186382
0.140641 0.770489 0.187592
0.188953 0.771850 0.188953
0.241813 0.773339 0.190443
0.298412 0.774934 0.192037
0.357940 0.776611 0.193714
0.419590 0.778348 0.195451
0.482553 0.780122 0.197225
0.546019 0.781910 0.199013
0.609180 0.783689 0.200793
0.671228 0.785437 0.202541
0.731354 0.787131 0.204235
0.788748 0.788748 0.205852
0.842603 0.790266 0.207369
0.892110 0.791660 0.208764
0.936459 0.792910 0.210014
0.974843 0.793991 0.211095
0.102789 0.826720 0.191486
0.145745 0.827930 0.192696
0.194058 0.829292 0.194058
0.246917 0.830781 0.195547
0.303516 0.832375 0.197141
0.363045 0.834053 0.198819
0.424695 0.835790 0.200556
0.487657 0.837563 0.202329
0.551123 0.839352 0.204118
0.614285 0.841131 0.205897
0.676333 0.842879 0.207645
0.736458 0.844573 0.209339
0.793853 0.846190 0.210956
0.847708 0.847708 0.212474
0.897214 0.849102 0.213868
0.941563 0.850352 0.215118
0.979947 0.851433 0.216199
0.107481 0.879524 0.196178
0.150437 0.880734 0.197389
0.198750 0.882095 0.198750
0.251610 0.883585 0.200239
0.308208 0.885179 0.201834
0.367737 0.886857 0.203511
0.429387 0.888593 0.205248
0.492349 0.890367 0.207022
0.555815 0.892155 0.208810
0.618977 0.893935 0.210589
0.681025 0.895683 0.212337
0.741150 0.897377 0.214031
0.798545 0.898994 0.215648
0.852400 0.900511 0.217166
0.901906 0.901906 0.218561
0.946256 0.903156 0.219810
0.984639 0.904237 0.220892
0.111684 0.926827 0.200382
0.154641 0.928038 0.201592
0.202953 0.929399 0.202953
0.255813 0.930888 0.204442
0.312412 0.932483 0.206037
0.371940 0.934160 0.207714
0.433590 0.935897 0.209451
0.496553 0.937671 0.211225
0.560019 0.939459 0.213013
0.623180 0.941238 0.214793
0.685228 0.942986 0.216541
0.745354 0.944680 0.218235
0.802748 0.946297 0.219852
0.856603 0.947815 0.221369
0.906110 0.949210 0.222764
0.950459 0.950459 0.224014
0.988843 0.951540 0.225095
0.115322 0.967767 0.204020
0.158279 0.968978 0.205230
0.206591 0.970339 0.206591
0.259451 0.971828 0.208080
0.316050 0.973423 0.209675
0.375578 0.975100 0.211352
0.437228 0.976837 0.213089
0.500191 0.978611 0.214863
0.563657 0.980399 0.216651
0.626818 0.982178 0.218431
0.688866 0.983926 0.220179
0.748992 0.985620 0.221873
0.806386 0.987238 0.223490
0.860241 0.988755 0.225007
0.909748 0.990150 0.226402
0.954097 0.991399 0.227651
0.992481 0.992481 0.228733
0.032691 0.032691 0.172759
0.075648 0.033902 0.173970
0.123960 0.035263 0.175331
0.176820 0.036752 0.176820
0.233419 0.038347 0.178415
0.292947 0.040024 0.180092
0.354597 0.041761 0.181829
0.417560 0.043535 0.183603
0.481026 0.045323 0.185391
0.544187 0.047102 0.187170
0.606235 0.048851 0.188919
0.666361 0.050545 0.190613
0.723755 0.052162 0.192230
