PRISM/Resources/LUTs/Film.cube
# Film.cube — PRISM bundled LUT: Lifted blacks, gentle S-curve, slight desaturation.
# Licensed under the Apache License, Version 2.0.
TITLE "Film"
LUT_3D_SIZE 5
DOMAIN_MIN 0.000000 0.000000 0.000000
DOMAIN_MAX 1.000000 1.000000 1.000000
0.031312 0.031312 0.031312
0.232040 0.036968 0.036968
0.479647 0.043944 0.043944
0.722376 0.050783 0.050783
0.908471 0.056026 0.056026
0.050337 0.245409 0.050337
0.251065 0.251065 0.055993
0.498672 0.258041 0.062969
0.741401 0.264879 0.069807
0.927495 0.270122 0.075050
0.073805 0.509508 0.073805
0.274533 0.515164 0.079461
0.522140 0.522140 0.086437
0.764869 0.528979 0.093276
0.950964 0.534222 0.098519
0.096811 0.768405 0.096811
0.297538 0.774060 0.102466
0.545146 0.781036 0.109443
0.787875 0.787875 0.116281
0.973969 0.793118 0.121524
0.114449 0.966894 0.114449
0.315176 0.972549 0.120104
0.562784 0.979526 0.127081
0.805513 0.986364 0.133919
0.991607 0.991607 0.139162
0.033233 0.033233 0.228305
0.233960 0.038888 0.233960
0.481567 0.045864 0.240936
0.724297 0.052703 0.247775
0.910391 0.057946 0.253018
0.052258 0.247330 0.247330
0.252985 0.252985 0.252985
0.500592 0.259961 0.259961
0.743322 0.266800 0.266800
0.929416 0.272043 0.272043
0.075726 0.511429 0.270798
0.276453 0.517084 0.276453
0.524060 0.524060 0.283429
0.766790 0.530899 0.290268
0.952884 0.536142 0.295511
0.098732 0.770326 0.293804
0.299459 0.775981 0.299459
0.547066 0.782957 0.306435
0.789796 0.789796 0.313274
0.975890 0.795039 0.318517
0.116370 0.968815 0.311442
0.317097 0.974470 0.317097
0.564704 0.981446 0.324073
0.807434 0.988285 0.330912
0.993528 0.993528 0.336155
0.035602 0.035602 0.471305
0.236329 0.041257 0.476960
0.483937 0.048234 0.483937
0.726666 0.055072 0.490775
0.912760 0.060315 0.496018
0.054627 0.249699 0.490330
0.255354 0.255354 0.495985
0.502961 0.262330 0.502961
0.745691 0.269169 0.509800
0.931785 0.274412 0.515043
0.078095 0.513798 0.513798
0.278822 0.519453 0.519453
0.526430 0.526430 0.526430
0.769159 0.533268 0.533268
0.955253 0.538511 0.538511
0.101101 0.772695 0.536804
0.301828 0.778350 0.542459
0.549435 0.785326 0.549435
0.792165 0.792165 0.556274
0.978259 0.797408 0.561517
0.118739 0.971184 0.554442
0.319466 0.976839 0.560097
0.567073 0.983815 0.567073
0.809803 0.990654 0.573912
0.995897 0.995897 0.579155
0.037925 0.037925 0.709518
0.238652 0.043580 0.715174
0.486259 0.050556 0.722150
0.728989 0.057395 0.728989
0.915083 0.062638 0.734232
0.056949 0.252021 0.728543
0.257677 0.257677 0.734199
0.505284 0.264653 0.741175
0.748013 0.271492 0.748013
0.934108 0.276735 0.753256
0.080418 0.516121 0.752011
0.281145 0.521776 0.757667
0.528752 0.528752 0.764643
0.771481 0.535591 0.771481
0.957576 0.540834 0.776725
0.103423 0.775017 0.775017
0.304151 0.780672 0.780672
0.551758 0.787649 0.787649
0.794487 0.794487 0.794487
0.980582 0.799730 0.799730
0.121061 0.973506 0.792655
0.321789 0.979162 0.798310
0.569396 0.986138 0.805286
0.812125 0.992976 0.812125
0.998219 0.998219 0.817368
0.039705 0.039705 0.892150
0.240432 0.045360 0.897806
0.488040 0.052337 0.904782
0.730769 0.059175 0.911620
0.916863 0.064418 0.916863
0.058730 0.253802 0.911175
0.259457 0.259457 0.916830
0.507064 0.266433 0.923806
0.749794 0.273272 0.930645
0.935888 0.278515 0.935888
0.082198 0.517901 0.934643
0.282925 0.523556 0.940298
0.530533 0.530533 0.947275
0.773262 0.537371 0.954113
0.959356 0.542614 0.959356
0.105204 0.776798 0.957649
0.305931 0.782453 0.963304
0.553538 0.789429 0.970280
0.796268 0.796268 0.977119
0.982362 0.801511 0.982362
0.122842 0.975287 0.975287
0.323569 0.980942 0.980942
0.571176 0.987918 0.987918
0.813906 0.994757 0.994757
1.000000 1.000000 1.000000
