PRISM/Resources/LUTs/Film.cube
# Film.cube — PRISM bundled LUT: Lifted blacks, gentle S-curve, slight desaturation.
# Licensed under the Apache License, Version 2.0.
TITLE "Film"
LUT_3D_SIZE 9
DOMAIN_MIN 0.000000 0.000000 0.000000
DOMAIN_MAX 1.000000 1.000000 1.000000
0.031312 0.031312 0.031312
0.122581 0.033884 0.033884
0.232040 0.036968 0.036968
0.353218 0.040382 0.040382
0.479647 0.043944 0.043944
0.604856 0.047472 0.047472
0.722376 0.050783 0.050783
0.825738 0.053695 0.053695
0.908471 0.056026 0.056026
0.039963 0.128660 0.039963
0.131232 0.131232 0.042534
0.240690 0.134316 0.045618
0.361869 0.137730 0.049032
0.488297 0.141292 0.052594
0.613507 0.144819 0.056122
0.731027 0.148130 0.059433
0.834388 0.151043 0.062345
0.917121 0.153373 0.064676
0.050337 0.245409 0.050337
0.141606 0.247981 0.052909
0.251065 0.251065 0.055993
0.372243 0.254479 0.059407
0.498672 0.258041 0.062969
0.623881 0.261568 0.066496
0.741401 0.264879 0.069807
0.844763 0.267792 0.072720
0.927495 0.270122 0.075050
0.061823 0.374659 0.061823
0.153091 0.377230 0.064394
0.262550 0.380314 0.067478
0.383728 0.383728 0.070892
0.510157 0.387290 0.074454
0.635366 0.390818 0.077982
0.752886 0.394129 0.081293
0.856248 0.397041 0.084205
0.938981 0.399372 0.086536
0.073805 0.509508 0.073805
0.165074 0.512080 0.076377
0.274533 0.515164 0.079461
0.395711 0.518578 0.082875
0.522140 0.522140 0.086437
0.647349 0.525667 0.089964
0.764869 0.528979 0.093276
0.868231 0.531891 0.096188
0.950964 0.534222 0.098519
0.085673 0.643057 0.085673
0.176941 0.645629 0.088244
0.286400 0.648713 0.091328
0.407578 0.652127 0.094742
0.534007 0.655689 0.098304
0.659216 0.659216 0.101832
0.776737 0.662527 0.105143
0.880098 0.665440 0.108055
0.962831 0.667770 0.110386
0.096811 0.768405 0.096811
0.188080 0.770976 0.099383
0.297538 0.774060 0.102466
0.418717 0.777474 0.105881
0.545146 0.781036 0.109443
0.670355 0.784564 0.112970
0.787875 0.787875 0.116281
0.891236 0.790787 0.119193
0.973969 0.793118 0.121524
0.106608 0.878651 0.106608
0.197877 0.881222 0.109179
0.307335 0.884306 0.112263
0.428513 0.887720 0.115677
0.554942 0.891282 0.119239
0.680151 0.894810 0.122767
0.797672 0.898121 0.126078
0.901033 0.901033 0.128990
0.983766 0.903364 0.131321
0.114449 0.966894 0.114449
0.205718 0.969466 0.117021
0.315176 0.972549 0.120104
0.436355 0.975964 0.123519
0.562784 0.979526 0.127081
0.687993 0.983053 0.130608
0.805513 0.986364 0.133919
0.908874 0.989276 0.136831
0.991607 0.991607 0.139162
0.032186 0.032186 0.120883
0.123455 0.034757 0.123455
0.232913 0.037841 0.126538
0.354091 0.041255 0.129953
0.480520 0.044817 0.133515
0.605729 0.048345 0.137042
0.723250 0.051656 0.140353
0.826611 0.054568 0.143265
0.909344 0.056899 0.145596
0.040836 0.129534 0.129534
0.132105 0.132105 0.132105
0.241563 0.135189 0.135189
0.362742 0.138603 0.138603
0.489171 0.142165 0.142165
0.614380 0.145693 0.145693
0.731900 0.149004 0.149004
0.835261 0.151916 0.151916
0.917994 0.154247 0.154247
0.051211 0.246283 0.139908
0.142479 0.248854 0.142479
0.251938 0.251938 0.145563
0.373116 0.255352 0.148977
0.499545 0.258914 0.152539
0.624754 0.262442 0.156067
0.742274 0.265753 0.159378
0.845636 0.268665 0.162290
0.928369 0.270996 0.164621
0.062696 0.375532 0.151393
0.153965 0.378104 0.153965
0.263423 0.381187 0.157049
0.384602 0.384602 0.160463
0.511030 0.388164 0.164025
0.636240 0.391691 0.167552
0.753760 0.395002 0.170863
0.857121 0.397914 0.173775
0.939854 0.400245 0.176106
0.074679 0.510382 0.163376
0.165947 0.512953 0.165947
0.275406 0.516037 0.169031
0.396584 0.519451 0.172445
0.523013 0.523013 0.176007
0.648222 0.526541 0.179535
0.765743 0.529852 0.182846
0.869104 0.532764 0.185758
0.951837 0.535095 0.188089
0.086546 0.643931 0.175243
0.177815 0.646502 0.177815
0.287273 0.649586 0.180899
0.408452 0.653000 0.184313
0.534880 0.656562 0.187875
0.660090 0.660090 0.191402
0.777610 0.663401 0.194713
0.880971 0.666313 0.197626
0.963704 0.668644 0.199956
0.097684 0.769278 0.186382
0.188953 0.771850 0.188953
0.298412 0.774934 0.192037
0.419590 0.778348 0.195451
0.546019 0.781910 0.199013
0.671228 0.785437 0.202541
0.788748 0.788748 0.205852
0.892110 0.791660 0.208764
0.974843 0.793991 0.211095
0.107481 0.879524 0.196178
0.198750 0.882095 0.198750
0.308208 0.885179 0.201834
0.429387 0.888593 0.205248
0.555815 0.892155 0.208810
0.681025 0.895683 0.212337
0.798545 0.898994 0.215648
0.901906 0.901906 0.218561
0.984639 0.904237 0.220892
0.115322 0.967767 0.204020
0.206591 0.970339 0.206591
0.316050 0.973423 0.209675
0.437228 0.976837 0.213089
0.563657 0.980399 0.216651
0.688866 0.983926 0.220179
0.806386 0.987238 0.223490
0.909748 0.990150 0.226402
0.992481 0.992481 0.228733
0.033233 0.033233 0.228305
0.124502 0.035804 0.230876
0.233960 0.038888 0.233960
0.355139 0.042302 0.237374
0.481567 0.045864 0.240936
0.606777 0.049392 0.244464
0.724297 0.052703 0.247775
0.827658 0.055615 0.250687
0.910391 0.057946 0.253018
0.041883 0.130581 0.236955
0.133152 0.133152 0.239527
0.242611 0.136236 0.242611
0.363789 0.139650 0.246025
0.490218 0.143212 0.249587
0.615427 0.146740 0.253115
0.732947 0.150051 0.256426
0.836309 0.152963 0.259338
0.919042 0.155294 0.261669
0.052258 0.247330 0.247330
0.143527 0.249901 0.249901
0.252985 0.252985 0.252985
0.374164 0.256399 0.256399
0.500592 0.259961 0.259961
0.625802 0.263489 0.263489
0.743322 0.266800 0.266800
0.846683 0.269712 0.269712
0.929416 0.272043 0.272043
0.063743 0.376579 0.258815
0.155012 0.379151 0.261386
0.264470 0.382235 0.264470
0.385649 0.385649 0.267884
0.512078 0.389211 0.271447
0.637287 0.392739 0.274974
0.754807 0.396050 0.278285
0.858168 0.398962 0.281197
0.940901 0.401293 0.283528
0.075726 0.511429 0.270798
0.166995 0.514000 0.273369
0.276453 0.517084 0.276453
0.397632 0.520498 0.279867
0.524060 0.524060 0.283429
0.649270 0.527588 0.286957
0.766790 0.530899 0.290268
0.870151 0.533811 0.293180
0.952884 0.536142 0.295511
0.087593 0.644978 0.282665
0.178862 0.647549 0.285237
0.288321 0.650633 0.288321
0.409499 0.654047 0.291735
0.535928 0.657609 0.295297
0.661137 0.661137 0.298824
0.778657 0.664448 0.302135
0.882019 0.667360 0.305047
0.964751 0.669691 0.307378
0.098732 0.770326 0.293804
0.190001 0.772897 0.296375
0.299459 0.775981 0.299459
0.420637 0.779395 0.302873
0.547066 0.782957 0.306435
0.672275 0.786485 0.309963
0.789796 0.789796 0.313274
0.893157 0.792708 0.316186
0.975890 0.795039 0.318517
0.108528 0.880571 0.303600
0.199797 0.883143 0.306172
0.309256 0.886227 0.309256
0.430434 0.889641 0.312670
0.556863 0.893203 0.316232
0.682072 0.896730 0.319759
0.799592 0.900041 0.323070
0.902954 0.902954 0.325982
0.985686 0.905285 0.328313
0.116370 0.968815 0.311442
0.207638 0.971386 0.314013
0.317097 0.974470 0.317097
0.438275 0.977884 0.320511
0.564704 0.981446 0.324073
0.689913 0.984974 0.327601
0.807434 0.988285 0.330912
0.910795 0.991197 0.333824
0.993528 0.993528 0.336155
0.034392 0.034392 0.347229
0.125661 0.036964 0.349800
0.235120 0.040048 0.352884
0.356298 0.043462 0.356298
0.482727 0.047024 0.359860
0.607936 0.050552 0.363388
0.725456 0.053863 0.366699
0.828818 0.056775 0.369611
0.911551 0.059106 0.371942
0.043043 0.131740 0.355879
0.134312 0.134312 0.358451
0.243770 0.137396 0.361535
0.364949 0.140810 0.364949
0.491377 0.144372 0.368511
0.616587 0.147899 0.372038
0.734107 0.151210 0.375349
0.837468 0.154123 0.378261
0.920201 0.156453 0.380592
0.053417 0.248489 0.366254
0.144686 0.251061 0.368825
0.254145 0.254145 0.371909
0.375323 0.257559 0.375323
0.501752 0.261121 0.378885
0.626961 0.264648 0.382413
0.744481 0.267959 0.385724
0.847843 0.270872 0.388636
0.930576 0.273202 0.390967
0.064903 0.377739 0.377739
0.156171 0.380310 0.380310
0.265630 0.383394 0.383394
0.386808 0.386808 0.386808
0.513237 0.390370 0.390370
0.638446 0.393898 0.393898
0.755966 0.397209 0.397209
0.859328 0.400121 0.400121
0.942061 0.402452 0.402452
0.076885 0.512588 0.389722
0.168154 0.515160 0.392293
0.277613 0.518244 0.395377
0.398791 0.521658 0.398791
0.525220 0.525220 0.402353
0.650429 0.528748 0.405881
0.767949 0.532059 0.409192
0.871311 0.534971 0.412104
0.954044 0.537302 0.414435
0.088753 0.646137 0.401589
0.180021 0.648709 0.404160
0.289480 0.651793 0.407244
0.410658 0.655207 0.410658
0.537087 0.658769 0.414220
0.662296 0.662296 0.417748
0.779817 0.665607 0.421059
0.883178 0.668520 0.423971
0.965911 0.670850 0.426302
0.099891 0.771485 0.412728
0.191160 0.774056 0.415299
0.300618 0.777140 0.418383
0.421797 0.780554 0.421797
0.548226 0.784116 0.425359
0.673435 0.787644 0.428887
0.790955 0.790955 0.432198
0.894316 0.793867 0.435110
0.977049 0.796198 0.437441
0.109688 0.881731 0.422524
0.200957 0.884302 0.425095
0.310415 0.887386 0.428179
0.431593 0.890800 0.431593
0.558022 0.894362 0.435155
0.683231 0.897890 0.438683
0.800752 0.901201 0.441994
0.904113 0.904113 0.444906
0.986846 0.906444 0.447237
0.117529 0.969974 0.430365
0.208798 0.972546 0.432937
0.318256 0.975629 0.436021
0.439435 0.979044 0.439435
0.565864 0.982606 0.442997
0.691073 0.986133 0.446525
0.808593 0.989444 0.449836
0.911954 0.992356 0.452748
0.994687 0.994687 0.455079
0.035602 0.035602 0.471305
0.126871 0.038174 0.473877
0.236329 0.041257 0.476960
0.357508 0.044672 0.480375
0.483937 0.048234 0.483937
0.609146 0.051761 0.487464
0.726666 0.055072 0.490775
0.830027 0.057984 0.493687
0.912760 0.060315 0.496018
0.044253 0.132950 0.479956
0.135521 0.135521 0.482527
0.244980 0.138605 0.485611
0.366158 0.142019 0.489025
0.492587 0.145581 0.492587
0.617796 0.149109 0.496115
0.735316 0.152420 0.499426
0.838678 0.155332 0.502338
0.921411 0.157663 0.504669
0.054627 0.249699 0.490330
0.145896 0.252270 0.492901
0.255354 0.255354 0.495985
0.376533 0.258768 0.499399
0.502961 0.262330 0.502961
0.628171 0.265858 0.506489
0.745691 0.269169 0.509800
0.849052 0.272081 0.512712
0.931785 0.274412 0.515043
0.066112 0.378949 0.501815
0.157381 0.381520 0.504387
0.266840 0.384604 0.507471
0.388018 0.388018 0.510885
0.514447 0.391580 0.514447
0.639656 0.395108 0.517974
0.757176 0.398419 0.521285
0.860538 0.401331 0.524197
0.943270 0.403662 0.526528
0.078095 0.513798 0.513798
0.169364 0.516370 0.516370
0.278822 0.519453 0.519453
0.400001 0.522868 0.522868
0.526430 0.526430 0.526430
0.651639 0.529957 0.529957
0.769159 0.533268 0.533268
0.872520 0.536180 0.536180
0.955253 0.538511 0.538511
0.089962 0.647347 0.525665
0.181231 0.649918 0.528237
0.290690 0.653002 0.531321
0.411868 0.656416 0.534735
0.538297 0.659978 0.538297
0.663506 0.663506 0.541824
0.781026 0.666817 0.545135
0.884388 0.669729 0.548048
0.967121 0.672060 0.550379
0.101101 0.772695 0.536804
0.192370 0.775266 0.539375
0.301828 0.778350 0.542459
0.423007 0.781764 0.545873
0.549435 0.785326 0.549435
0.674645 0.788854 0.552963
0.792165 0.792165 0.556274
0.895526 0.795077 0.559186
0.978259 0.797408 0.561517
0.110897 0.882940 0.546600
0.202166 0.885512 0.549172
0.311625 0.888596 0.552256
0.432803 0.892010 0.555670
0.559232 0.895572 0.559232
0.684441 0.899100 0.562760
0.801961 0.902411 0.566071
0.905323 0.905323 0.568983
0.988056 0.907654 0.571314
0.118739 0.971184 0.554442
0.210008 0.973755 0.557013
0.319466 0.976839 0.560097
0.440645 0.980253 0.563511
0.567073 0.983815 0.567073
0.692283 0.987343 0.570601
0.809803 0.990654 0.573912
0.913164 0.993566 0.576824
0.995897 0.995897 0.579155
0.036800 0.036800 0.594185
0.128069 0.039372 0.596756
0.237527 0.042455 0.599840
0.358706 0.045870 0.603254
0.485135 0.049432 0.606816
0.610344 0.052959 0.610344
0.727864 0.056270 0.613655
0.831225 0.059182 0.616567
0.913958 0.061513 0.618898
0.045451 0.134148 0.602835
0.136719 0.136719 0.605407
0.246178 0.139803 0.608491
0.367356 0.143217 0.611905
0.493785 0.146779 0.615467
0.618994 0.150307 0.618994
0.736515 0.153618 0.622305
0.839876 0.156530 0.625217
0.922609 0.158861 0.627548
0.055825 0.250897 0.613210
0.147094 0.253468 0.615781
0.256552 0.256552 0.618865
0.377731 0.259966 0.622279
0.504159 0.263528 0.625841
0.629369 0.267056 0.629369
0.746889 0.270367 0.632680
0.850250 0.273279 0.635592
0.932983 0.275610 0.637923
0.067310 0.380147 0.624695
0.158579 0.382718 0.627266
0.268038 0.385802 0.630350
0.389216 0.389216 0.633764
0.515645 0.392778 0.637326
0.640854 0.396306 0.640854
0.758374 0.399617 0.644165
0.861736 0.402529 0.647077
0.944468 0.404860 0.649408
0.079293 0.514996 0.636678
0.170562 0.517568 0.639249
0.280020 0.520651 0.642333
0.401199 0.524066 0.645747
0.527628 0.527628 0.649309
0.652837 0.531155 0.652837
0.770357 0.534466 0.656148
0.873718 0.537378 0.659060
0.956451 0.539709 0.661391
0.091160 0.648545 0.648545
0.182429 0.651116 0.651116
0.291888 0.654200 0.654200
0.413066 0.657614 0.657614
0.539495 0.661176 0.661176
0.664704 0.664704 0.664704
0.782224 0.668015 0.668015
0.885586 0.670927 0.670927
0.968319 0.673258 0.673258
0.102299 0.773893 0.659684
0.193568 0.776464 0.662255
0.303026 0.779548 0.665339
0.424205 0.782962 0.668753
0.550633 0.786524 0.672315
0.675843 0.790052 0.675843
0.793363 0.793363 0.679154
0.896724 0.796275 0.682066
0.979457 0.798606 0.684397
0.112095 0.884138 0.669480
0.203364 0.886710 0.672051
0.312823 0.889794 0.675135
0.434001 0.893208 0.678549
0.560430 0.896770 0.682112
0.685639 0.900298 0.685639
0.803159 0.903609 0.688950
0.906521 0.906521 0.691862
0.989254 0.908852 0.694193
0.119937 0.972382 0.677321
0.211206 0.974953 0.679893
0.320664 0.978037 0.682977
0.441843 0.981451 0.686391
0.568271 0.985013 0.689953
0.693481 0.988541 0.693481
0.811001 0.991852 0.696792
0.914362 0.994764 0.699704
0.997095 0.997095 0.702035
0.037925 0.037925 0.709518
0.129193 0.040496 0.712090
0.238652 0.043580 0.715174
0.359830 0.046994 0.718588
0.486259 0.050556 0.722150
0.611468 0.054084 0.725678
0.728989 0.057395 0.728989
0.832350 0.060307 0.731901
0.915083 0.062638 0.734232
0.046575 0.135272 0.718169
0.137844 0.137844 0.720740
0.247302 0.140928 0.723824
0.368481 0.144342 0.727238
0.494909 0.147904 0.730800
0.620119 0.151432 0.734328
0.737639 0.154743 0.737639
0.841000 0.157655 0.740551
0.923733 0.159986 0.742882
0.056949 0.252021 0.728543
0.148218 0.254593 0.731115
0.257677 0.257677 0.734199
0.378855 0.261091 0.737613
0.505284 0.264653 0.741175
0.630493 0.268181 0.744702
0.748013 0.271492 0.748013
0.851375 0.274404 0.750925
0.934108 0.276735 0.753256
0.068435 0.381271 0.740028
0.159703 0.383842 0.742600
0.269162 0.386926 0.745684
0.390340 0.390340 0.749098
0.516769 0.393902 0.752660
0.641978 0.397430 0.756188
0.759499 0.400741 0.759499
0.862860 0.403653 0.762411
0.945593 0.405984 0.764742
0.080418 0.516121 0.752011
0.171686 0.518692 0.754583
0.281145 0.521776 0.757667
0.402323 0.525190 0.761081
0.528752 0.528752 0.764643
0.653961 0.532280 0.768170
0.771481 0.535591 0.771481
0.874843 0.538503 0.774394
0.957576 0.540834 0.776725
0.092285 0.649669 0.763879
0.183554 0.652241 0.766450
0.293012 0.655325 0.769534
0.414191 0.658739 0.772948
0.540619 0.662301 0.776510
0.665829 0.665829 0.780038
0.783349 0.669140 0.783349
0.886710 0.672052 0.786261
0.969443 0.674383 0.788592
0.103423 0.775017 0.775017
0.194692 0.777589 0.777589
0.304151 0.780672 0.780672
0.425329 0.784087 0.784087
0.551758 0.787649 0.787649
0.676967 0.791176 0.791176
0.794487 0.794487 0.794487
0.897849 0.797399 0.797399
0.980582 0.799730 0.799730
0.113220 0.885263 0.784814
0.204489 0.887834 0.787385
0.313947 0.890918 0.790469
0.435126 0.894332 0.793883
0.561554 0.897894 0.797445
0.686764 0.901422 0.800973
0.804284 0.904733 0.804284
0.907645 0.907645 0.807196
0.990378 0.909976 0.809527
0.121061 0.973506 0.792655
0.212330 0.976078 0.795226
0.321789 0.979162 0.798310
0.442967 0.982576 0.801724
0.569396 0.986138 0.805286
0.694605 0.989665 0.808814
0.812125 0.992976 0.812125
0.915487 0.995889 0.815037
0.998219 0.998219 0.817368
0.038914 0.038914 0.810957
0.130182 0.041485 0.813528
0.239641 0.044569 0.816612
0.360819 0.047983 0.820026
0.487248 0.051545 0.823588
0.612457 0.055073 0.827116
0.729978 0.058384 0.830427
0.833339 0.061296 0.833339
0.916072 0.063627 0.835670
0.047564 0.136261 0.819607
0.138833 0.138833 0.822178
0.248291 0.141917 0.825262
0.369470 0.145331 0.828676
0.495898 0.148893 0.832238
0.621108 0.152420 0.835766
0.738628 0.155732 0.839077
0.841989 0.158644 0.841989
0.924722 0.160975 0.844320
0.057938 0.253010 0.829981
0.149207 0.255582 0.832553
0.258666 0.258666 0.835637
0.379844 0.262080 0.839051
0.506273 0.265642 0.842613
0.631482 0.269169 0.846141
0.749002 0.272481 0.849452
0.852364 0.275393 0.852364
0.935097 0.277724 0.854695
0.069424 0.382260 0.841467
0.160692 0.384831 0.844038
0.270151 0.387915 0.847122
0.391329 0.391329 0.850536
0.517758 0.394891 0.854098
0.642967 0.398419 0.857626
0.760488 0.401730 0.860937
0.863849 0.404642 0.863849
0.946582 0.406973 0.866180
0.081407 0.517110 0.853450
0.172675 0.519681 0.856021
0.282134 0.522765 0.859105
0.403312 0.526179 0.862519
0.529741 0.529741 0.866081
0.654950 0.533269 0.869609
0.772470 0.536580 0.872920
0.875832 0.539492 0.875832
0.958565 0.541823 0.878163
0.093274 0.650658 0.865317
0.184543 0.653230 0.867888
0.294001 0.656314 0.870972
0.415180 0.659728 0.874386
0.541608 0.663290 0.877948
0.666818 0.666818 0.881476
0.784338 0.670129 0.884787
0.887699 0.673041 0.887699
0.970432 0.675372 0.890030
0.104412 0.776006 0.876455
0.195681 0.778578 0.879027
0.305140 0.781661 0.882111
0.426318 0.785076 0.885525
0.552747 0.788638 0.889087
0.677956 0.792165 0.892614
0.795476 0.795476 0.895925
0.898838 0.798388 0.898838
0.981570 0.800719 0.901169
0.114209 0.886252 0.886252
0.205478 0.888823 0.888823
0.314936 0.891907 0.891907
0.436115 0.895321 0.895321
0.562543 0.898883 0.898883
0.687753 0.902411 0.902411
0.805273 0.905722 0.905722
0.908634 0.908634 0.908634
0.991367 0.910965 0.910965
0.122050 0.974495 0.894093
0.213319 0.977067 0.896665
0.322778 0.980151 0.899749
0.443956 0.983565 0.903163
0.570385 0.987127 0.906725
0.695594 0.990654 0.910252
0.813114 0.993965 0.913563
0.916476 0.996877 0.916476
0.999208 0.999208 0.918806
0.039705 0.039705 0.892150
0.130974 0.042277 0.894722
0.240432 0.045360 0.897806
0.361611 0.048775 0.901220
0.488040 0.052337 0.904782
0.613249 0.055864 0.908309
0.730769 0.059175 0.911620
0.834130 0.062087 0.914532
0.916863 0.064418 0.916863
0.048356 0.137053 0.900801
0.139624 0.139624 0.903372
0.249083 0.142708 0.906456
0.370261 0.146122 0.909870
0.496690 0.149684 0.913432
0.621899 0.153212 0.916960
0.739420 0.156523 0.920271
0.842781 0.159435 0.923183
0.925514 0.161766 0.925514
0.058730 0.253802 0.911175
0.149999 0.256373 0.913746
0.259457 0.259457 0.916830
0.380636 0.262871 0.920244
0.507064 0.266433 0.923806
0.632274 0.269961 0.927334
0.749794 0.273272 0.930645
0.853155 0.276184 0.933557
0.935888 0.278515 0.935888
0.070215 0.383052 0.922660
0.161484 0.385623 0.925232
0.270943 0.388707 0.928316
0.392121 0.392121 0.931730
0.518550 0.395683 0.935292
0.643759 0.399211 0.938819
0.761279 0.402522 0.942130
0.864641 0.405434 0.945043
0.947373 0.407765 0.947373
0.082198 0.517901 0.934643
0.173467 0.520473 0.937215
0.282925 0.523556 0.940298
0.404104 0.526971 0.943713
0.530533 0.530533 0.947275
0.655742 0.534060 0.950802
0.773262 0.537371 0.954113
0.876623 0.540283 0.957025
0.959356 0.542614 0.959356
0.094065 0.651450 0.946510
0.185334 0.654021 0.949082
0.294793 0.657105 0.952166
0.415971 0.660519 0.955580
0.542400 0.664081 0.959142
0.667609 0.667609 0.962669
0.785129 0.670920 0.965981
0.888491 0.673832 0.968893
0.971224 0.676163 0.971224
0.105204 0.776798 0.957649
0.196473 0.779369 0.960220
0.305931 0.782453 0.963304
0.427110 0.785867 0.966718
0.553538 0.789429 0.970280
0.678748 0.792957 0.973808
0.796268 0.796268 0.977119
0.899629 0.799180 0.980031
0.982362 0.801511 0.982362
0.115000 0.887044 0.967445
0.206269 0.889615 0.970017
0.315728 0.892699 0.973101
0.436906 0.896113 0.976515
0.563335 0.899675 0.980077
0.688544 0.903203 0.983605
0.806064 0.906514 0.986916
0.909426 0.909426 0.989828
0.992159 0.911757 0.992159
0.122842 0.975287 0.975287
0.214111 0.977858 0.977858
0.323569 0.980942 0.980942
0.444748 0.984356 0.984356
0.571176 0.987918 0.987918
0.696386 0.991446 0.991446
0.813906 0.994757 0.994757
0.917267 0.997669 0.997669
1.000000 1.000000 1.000000
