PRISM/Resources/LUTs/Warm.cube
# Warm.cube — PRISM bundled LUT: +R −B tilt.
# Licensed under the Apache License, Version 2.0.
TITLE "Warm"
LUT_3D_SIZE 5
DOMAIN_MIN 0.000000 0.000000 0.000000
DOMAIN_MAX 1.000000 1.000000 1.000000
0.012000 0.000000 0.000000
0.277000 0.000000 0.000000
0.542000 0.000000 0.000000
0.807000 0.000000 0.000000
1.000000 0.000000 0.000000
0.012000 0.251250 0.000000
0.277000 0.251250 0.000000
0.542000 0.251250 0.000000
0.807000 0.251250 0.000000
1.000000 0.251250 0.000000
0.012000 0.502500 0.000000
0.277000 0.502500 0.000000
0.542000 0.502500 0.000000
0.807000 0.502500 0.000000
1.000000 0.502500 0.000000
0.012000 0.753750 0.000000
0.277000 0.753750 0.000000
0.542000 0.753750 0.000000
0.807000 0.753750 0.000000
1.000000 0.753750 0.000000
0.012000 1.000000 0.000000
0.277000 1.000000 0.000000
0.542000 1.000000 0.000000
0.807000 1.000000 0.000000
1.000000 1.000000 0.000000
0.012000 0.000000 0.227000
0.277000 0.000000 0.227000
0.542000 0.000000 0.227000
0.807000 0.000000 0.227000
1.000000 0.000000 0.227000
0.012000 0.251250 0.227000
0.277000 0.251250 0.227000
0.542000 0.251250 0.227000
0.807000 0.251250 0.227000
1.000000 0.251250 0.227000
0.012000 0.502500 0.227000
0.277000 0.502500 0.227000
0.542000 0.502500 0.227000
0.807000 0.502500 0.227000
1.000000 0.502500 0.227000
0.012000 0.753750 0.227000
0.277000 0.753750 0.227000
0.542000 0.753750 0.227000
0.807000 0.753750 0.227000
1.000000 0.753750 0.227000
0.012000 1.000000 0.227000
0.277000 1.000000 0.227000
0.542000 1.000000 0.227000
0.807000 1.000000 0.227000
1.000000 1.000000 0.227000
0.012000 0.000000 0.462000
0.277000 0.000000 0.462000
0.542000 0.000000 0.462000
0.807000 0.000000 0.462000
1.000000 0.000000 0.462000
0.012000 0.251250 0.462000
0.277000 0.251250 0.462000
0.542000 0.251250 0.462000
0.807000 0.251250 0.462000
1.000000 0.251250 0.462000
0.012000 0.502500 0.462000
0.277000 0.502500 0.462000
0.542000 0.502500 0.462000
0.807000 0.502500 0.462000
1.000000 0.502500 0.462000
0.012000 0.753750 0.462000
0.277000 0.753750 0.462000
0.542000 0.753750 0.462000
0.807000 0.753750 0.462000
1.000000 0.753750 0.462000
0.012000 1.000000 0.462000
0.277000 1.000000 0.462000
0.542000 1.000000 0.462000
0.807000 1.000000 0.462000
1.000000 1.000000 0.462000
0.012000 0.000000 0.697000
0.277000 0.000000 0.697000
0.542000 0.000000 0.697000
0.807000 0.000000 0.697000
1.000000 0.000000 0.697000
0.012000 0.251250 0.697000
0.277000 0.251250 0.697000
0.542000 0.251250 0.697000
0.807000 0.251250 0.697000
1.000000 0.251250 0.697000
0.012000 0.502500 0.697000
0.277000 0.502500 0.697000
0.542000 0.502500 0.697000
0.807000 0.502500 0.697000
1.000000 0.502500 0.697000
0.012000 0.753750 0.697000
0.277000 0.753750 0.697000
0.542000 0.753750 0.697000
0.807000 0.753750 0.697000
1.000000 0.753750 0.697000
0.012000 1.000000 0.697000
0.277000 1.000000 0.697000
0.542000 1.000000 0.697000
0.807000 1.000000 0.697000
1.000000 1.000000 0.697000
0.012000 0.000000 0.932000
0.277000 0.000000 0.932000
0.542000 0.000000 0.932000
0.807000 0.000000 0.932000
1.000000 0.000000 0.932000
0.012000 0.251250 0.932000
0.277000 0.251250 0.932000
0.542000 0.251250 0.932000
0.807000 0.251250 0.932000
1.000000 0.251250 0.932000
0.012000 0.502500 0.932000
0.277000 0.502500 0.932000
0.542000 0.502500 0.932000
0.807000 0.502500 0.932000
1.000000 0.502500 0.932000
0.012000 0.753750 0.932000
0.277000 0.753750 0.932000
0.542000 0.753750 0.932000
0.807000 0.753750 0.932000
1.000000 0.753750 0.932000
0.012000 1.000000 0.932000
0.277000 1.000000 0.932000
0.542000 1.000000 0.932000
0.807000 1.000000 0.932000
1.000000 1.000000 0.932000
