PRISM/Resources/LUTs/Warm.cube
# Warm.cube — PRISM bundled LUT: +R −B tilt.
# Licensed under the Apache License, Version 2.0.
TITLE "Warm"
LUT_3D_SIZE 9
DOMAIN_MIN 0.000000 0.000000 0.000000
DOMAIN_MAX 1.000000 1.000000 1.000000
0.012000 0.000000 0.000000
0.144500 0.000000 0.000000
0.277000 0.000000 0.000000
0.409500 0.000000 0.000000
0.542000 0.000000 0.000000
0.674500 0.000000 0.000000
0.807000 0.000000 0.000000
0.939500 0.000000 0.000000
1.000000 0.000000 0.000000
0.012000 0.125625 0.000000
0.144500 0.125625 0.000000
0.277000 0.125625 0.000000
0.409500 0.125625 0.000000
0.542000 0.125625 0.000000
0.674500 0.125625 0.000000
0.807000 0.125625 0.000000
0.939500 0.125625 0.000000
1.000000 0.125625 0.000000
0.012000 0.251250 0.000000
0.144500 0.251250 0.000000
0.277000 0.251250 0.000000
0.409500 0.251250 0.000000
0.542000 0.251250 0.000000
0.674500 0.251250 0.000000
0.807000 0.251250 0.000000
0.939500 0.251250 0.000000
1.000000 0.251250 0.000000
0.012000 0.376875 0.000000
0.144500 0.376875 0.000000
0.277000 0.376875 0.000000
0.409500 0.376875 0.000000
0.542000 0.376875 0.000000
0.674500 0.376875 0.000000
0.807000 0.376875 0.000000
0.939500 0.376875 0.000000
1.000000 0.376875 0.000000
0.012000 0.502500 0.000000
0.144500 0.502500 0.000000
0.277000 0.502500 0.000000
0.409500 0.502500 0.000000
0.542000 0.502500 0.000000
0.674500 0.502500 0.000000
0.807000 0.502500 0.000000
0.939500 0.502500 0.000000
1.000000 0.502500 0.000000
0.012000 0.628125 0.000000
0.144500 0.628125 0.000000
0.277000 0.628125 0.000000
0.409500 0.628125 0.000000
0.542000 0.628125 0.000000
0.674500 0.628125 0.000000
0.807000 0.628125 0.000000
0.939500 0.628125 0.000000
1.000000 0.628125 0.000000
0.012000 0.753750 0.000000
0.144500 0.753750 0.000000
0.277000 0.753750 0.000000
0.409500 0.753750 0.000000
0.542000 0.753750 0.000000
0.674500 0.753750 0.000000
0.807000 0.753750 0.000000
0.939500 0.753750 0.000000
1.000000 0.753750 0.000000
0.012000 0.879375 0.000000
0.144500 0.879375 0.000000
0.277000 0.879375 0.000000
0.409500 0.879375 0.000000
0.542000 0.879375 0.000000
0.674500 0.879375 0.000000
0.807000 0.879375 0.000000
0.939500 0.879375 0.000000
1.000000 0.879375 0.000000
0.012000 1.000000 0.000000
0.144500 1.000000 0.000000
0.277000 1.000000 0.000000
0.409500 1.000000 0.000000
0.542000 1.000000 0.000000
0.674500 1.000000 0.000000
0.807000 1.000000 0.000000
0.939500 1.000000 0.000000
1.000000 1.000000 0.000000
0.012000 0.000000 0.109500
0.144500 0.000000 0.109500
0.277000 0.000000 0.109500
0.409500 0.000000 0.109500
0.542000 0.000000 0.109500
0.674500 0.000000 0.109500
0.807000 0.000000 0.109500
0.939500 0.000000 0.109500
1.000000 0.000000 0.109500
0.012000 0.125625 0.109500
0.144500 0.125625 0.109500
0.277000 0.125625 0.109500
0.409500 0.125625 0.109500
0.542000 0.125625 0.109500
0.674500 0.125625 0.109500
0.807000 0.125625 0.109500
0.939500 0.125625 0.109500
1.000000 0.125625 0.109500
0.012000 0.251250 0.109500
0.144500 0.251250 0.109500
0.277000 0.251250 0.109500
0.409500 0.251250 0.109500
0.542000 0.251250 0.109500
0.674500 0.251250 0.109500
0.807000 0.251250 0.109500
0.939500 0.251250 0.109500
1.000000 0.251250 0.109500
0.012000 0.376875 0.109500
0.144500 0.376875 0.109500
0.277000 0.376875 0.109500
0.409500 0.376875 0.109500
0.542000 0.376875 0.109500
0.674500 0.376875 0.109500
0.807000 0.376875 0.109500
0.939500 0.376875 0.109500
1.000000 0.376875 0.109500
0.012000 0.502500 0.109500
0.144500 0.502500 0.109500
0.277000 0.502500 0.109500
0.409500 0.502500 0.109500
0.542000 0.502500 0.109500
0.674500 0.502500 0.109500
0.807000 0.502500 0.109500
0.939500 0.502500 0.109500
1.000000 0.502500 0.109500
0.012000 0.628125 0.109500
0.144500 0.628125 0.109500
0.277000 0.628125 0.109500
0.409500 0.628125 0.109500
0.542000 0.628125 0.109500
0.674500 0.628125 0.109500
0.807000 0.628125 0.109500
0.939500 0.628125 0.109500
1.000000 0.628125 0.109500
0.012000 0.753750 0.109500
0.144500 0.753750 0.109500
0.277000 0.753750 0.109500
0.409500 0.753750 0.109500
0.542000 0.753750 0.109500
0.674500 0.753750 0.109500
0.807000 0.753750 0.109500
0.939500 0.753750 0.109500
1.000000 0.753750 0.109500
0.012000 0.879375 0.109500
0.144500 0.879375 0.109500
0.277000 0.879375 0.109500
0.409500 0.879375 0.109500
0.542000 0.879375 0.109500
0.674500 0.879375 0.109500
0.807000 0.879375 0.109500
0.939500 0.879375 0.109500
1.000000 0.879375 0.109500
0.012000 1.000000 0.109500
0.144500 1.000000 0.109500
0.277000 1.000000 0.109500
0.409500 1.000000 0.109500
0.542000 1.000000 0.109500
0.674500 1.000000 0.109500
0.807000 1.000000 0.109500
0.939500 1.000000 0.109500
1.000000 1.000000 0.109500
0.012000 0.000000 0.227000
0.144500 0.000000 0.227000
0.277000 0.000000 0.227000
0.409500 0.000000 0.227000
0.542000 0.000000 0.227000
0.674500 0.000000 0.227000
0.807000 0.000000 0.227000
0.939500 0.000000 0.227000
1.000000 0.000000 0.227000
0.012000 0.125625 0.227000
0.144500 0.125625 0.227000
0.277000 0.125625 0.227000
0.409500 0.125625 0.227000
0.542000 0.125625 0.227000
0.674500 0.125625 0.227000
0.807000 0.125625 0.227000
0.939500 0.125625 0.227000
1.000000 0.125625 0.227000
0.012000 0.251250 0.227000
0.144500 0.251250 0.227000
0.277000 0.251250 0.227000
0.409500 0.251250 0.227000
0.542000 0.251250 0.227000
0.674500 0.251250 0.227000
0.807000 0.251250 0.227000
0.939500 0.251250 0.227000
1.000000 0.251250 0.227000
0.012000 0.376875 0.227000
0.144500 0.376875 0.227000
0.277000 0.376875 0.227000
0.409500 0.376875 0.227000
0.542000 0.376875 0.227000
0.674500 0.376875 0.227000
0.807000 0.376875 0.227000
0.939500 0.376875 0.227000
1.000000 0.376875 0.227000
0.012000 0.502500 0.227000
0.144500 0.502500 0.227000
0.277000 0.502500 0.227000
0.409500 0.502500 0.227000
0.542000 0.502500 0.227000
0.674500 0.502500 0.227000
0.807000 0.502500 0.227000
0.939500 0.502500 0.227000
1.000000 0.502500 0.227000
0.012000 0.628125 0.227000
0.144500 0.628125 0.227000
0.277000 0.628125 0.227000
0.409500 0.628125 0.227000
0.542000 0.628125 0.227000
0.674500 0.628125 0.227000
0.807000 0.628125 0.227000
0.939500 0.628125 0.227000
1.000000 0.628125 0.227000
0.012000 0.753750 0.227000
0.144500 0.753750 0.227000
0.277000 0.753750 0.227000
0.409500 0.753750 0.227000
0.542000 0.753750 0.227000
0.674500 0.753750 0.227000
0.807000 0.753750 0.227000
0.939500 0.753750 0.227000
1.000000 0.753750 0.227000
0.012000 0.879375 0.227000
0.144500 0.879375 0.227000
0.277000 0.879375 0.227000
0.409500 0.879375 0.227000
0.542000 0.879375 0.227000
0.674500 0.879375 0.227000
0.807000 0.879375 0.227000
0.939500 0.879375 0.227000
1.000000 0.879375 0.227000
0.012000 1.000000 0.227000
0.144500 1.000000 0.227000
0.277000 1.000000 0.227000
0.409500 1.000000 0.227000
0.542000 1.000000 0.227000
0.674500 1.000000 0.227000
0.807000 1.000000 0.227000
0.939500 1.000000 0.227000
1.000000 1.000000 0.227000
0.012000 0.000000 0.344500
0.144500 0.000000 0.344500
0.277000 0.000000 0.344500
0.409500 0.000000 0.344500
0.542000 0.000000 0.344500
0.674500 0.000000 0.344500
0.807000 0.000000 0.344500
0.939500 0.000000 0.344500
1.000000 0.000000 0.344500
0.012000 0.125625 0.344500
0.144500 0.125625 0.344500
0.277000 0.125625 0.344500
0.409500 0.125625 0.344500
0.542000 0.125625 0.344500
0.674500 0.125625 0.344500
0.807000 0.125625 0.344500
0.939500 0.125625 0.344500
1.000000 0.125625 0.344500
0.012000 0.251250 0.344500
0.144500 0.251250 0.344500
0.277000 0.251250 0.344500
0.409500 0.251250 0.344500
0.542000 0.251250 0.344500
0.674500 0.251250 0.344500
0.807000 0.251250 0.344500
0.939500 0.251250 0.344500
1.000000 0.251250 0.344500
0.012000 0.376875 0.344500
0.144500 0.376875 0.344500
0.277000 0.376875 0.344500
0.409500 0.376875 0.344500
0.542000 0.376875 0.344500
0.674500 0.376875 0.344500
0.807000 0.376875 0.344500
0.939500 0.376875 0.344500
1.000000 0.376875 0.344500
0.012000 0.502500 0.344500
0.144500 0.502500 0.344500
0.277000 0.502500 0.344500
0.409500 0.502500 0.344500
0.542000 0.502500 0.344500
0.674500 0.502500 0.344500
0.807000 0.502500 0.344500
0.939500 0.502500 0.344500
1.000000 0.502500 0.344500
0.012000 0.628125 0.344500
0.144500 0.628125 0.344500
0.277000 0.628125 0.344500
0.409500 0.628125 0.344500
0.542000 0.628125 0.344500
0.674500 0.628125 0.344500
0.807000 0.628125 0.344500
0.939500 0.628125 0.344500
1.000000 0.628125 0.344500
0.012000 0.753750 0.344500
0.144500 0.753750 0.344500
0.277000 0.753750 0.344500
0.409500 0.753750 0.344500
0.542000 0.753750 0.344500
0.674500 0.753750 0.344500
0.807000 0.753750 0.344500
0.939500 0.753750 0.344500
1.000000 0.753750 0.344500
0.012000 0.879375 0.344500
0.144500 0.879375 0.344500
0.277000 0.879375 0.344500
0.409500 0.879375 0.344500
0.542000 0.879375 0.344500
0.674500 0.879375 0.344500
0.807000 0.879375 0.344500
0.939500 0.879375 0.344500
1.000000 0.879375 0.344500
0.012000 1.000000 0.344500
0.144500 1.000000 0.344500
0.277000 1.000000 0.344500
0.409500 1.000000 0.344500
0.542000 1.000000 0.344500
0.674500 1.000000 0.344500
0.807000 1.000000 0.344500
0.939500 1.000000 0.344500
1.000000 1.000000 0.344500
0.012000 0.000000 0.462000
0.144500 0.000000 0.462000
0.277000 0.000000 0.462000
0.409500 0.000000 0.462000
0.542000 0.000000 0.462000
0.674500 0.000000 0.462000
0.807000 0.000000 0.462000
0.939500 0.000000 0.462000
1.000000 0.000000 0.462000
0.012000 0.125625 0.462000
0.144500 0.125625 0.462000
0.277000 0.125625 0.462000
0.409500 0.125625 0.462000
0.542000 0.125625 0.462000
0.674500 0.125625 0.462000
0.807000 0.125625 0.462000
0.939500 0.125625 0.462000
1.000000 0.125625 0.462000
0.012000 0.251250 0.462000
0.144500 0.251250 0.462000
0.277000 0.251250 0.462000
0.409500 0.251250 0.462000
0.542000 0.251250 0.462000
0.674500 0.251250 0.462000
0.807000 0.251250 0.462000
0.939500 0.251250 0.462000
1.000000 0.251250 0.462000
0.012000 0.376875 0.462000
0.144500 0.376875 0.462000
0.277000 0.376875 0.462000
0.409500 0.376875 0.462000
0.542000 0.376875 0.462000
0.674500 0.376875 0.462000
0.807000 0.376875 0.462000
0.939500 0.376875 0.462000
1.000000 0.376875 0.462000
0.012000 0.502500 0.462000
0.144500 0.502500 0.462000
0.277000 0.502500 0.462000
0.409500 0.502500 0.462000
0.542000 0.502500 0.462000
0.674500 0.502500 0.462000
0.807000 0.502500 0.462000
0.939500 0.502500 0.462000
1.000000 0.502500 0.462000
0.012000 0.628125 0.462000
0.144500 0.628125 0.462000
0.277000 0.628125 0.462000
0.409500 0.628125 0.462000
0.542000 0.628125 0.462000
0.674500 0.628125 0.462000
0.807000 0.628125 0.462000
0.939500 0.628125 0.462000
1.000000 0.628125 0.462000
0.012000 0.753750 0.462000
0.144500 0.753750 0.462000
0.277000 0.753750 0.462000
0.409500 0.753750 0.462000
0.542000 0.753750 0.462000
0.674500 0.753750 0.462000
0.807000 0.753750 0.462000
0.939500 0.753750 0.462000
1.000000 0.753750 0.462000
0.012000 0.879375 0.462000
0.144500 0.879375 0.462000
0.277000 0.879375 0.462000
0.409500 0.879375 0.462000
0.542000 0.879375 0.462000
0.674500 0.879375 0.462000
0.807000 0.879375 0.462000
0.939500 0.879375 0.462000
1.000000 0.879375 0.462000
0.012000 1.000000 0.462000
0.144500 1.000000 0.462000
0.277000 1.000000 0.462000
0.409500 1.000000 0.462000
0.542000 1.000000 0.462000
0.674500 1.000000 0.462000
0.807000 1.000000 0.462000
0.939500 1.000000 0.462000
1.000000 1.000000 0.462000
0.012000 0.000000 0.579500
0.144500 0.000000 0.579500
0.277000 0.000000 0.579500
0.409500 0.000000 0.579500
0.542000 0.000000 0.579500
0.674500 0.000000 0.579500
0.807000 0.000000 0.579500
0.939500 0.000000 0.579500
1.000000 0.000000 0.579500
0.012000 0.125625 0.579500
0.144500 0.125625 0.579500
0.277000 0.125625 0.579500
0.409500 0.125625 0.579500
0.542000 0.125625 0.579500
0.674500 0.125625 0.579500
0.807000 0.125625 0.579500
0.939500 0.125625 0.579500
1.000000 0.125625 0.579500
0.012000 0.251250 0.579500
0.144500 0.251250 0.579500
0.277000 0.251250 0.579500
0.409500 0.251250 0.579500
0.542000 0.251250 0.579500
0.674500 0.251250 0.579500
0.807000 0.251250 0.579500
0.939500 0.251250 0.579500
1.000000 0.251250 0.579500
0.012000 0.376875 0.579500
0.144500 0.376875 0.579500
0.277000 0.376875 0.579500
0.409500 0.376875 0.579500
0.542000 0.376875 0.579500
0.674500 0.376875 0.579500
0.807000 0.376875 0.579500
0.939500 0.376875 0.579500
1.000000 0.376875 0.579500
0.012000 0.502500 0.579500
0.144500 0.502500 0.579500
0.277000 0.502500 0.579500
0.409500 0.502500 0.579500
0.542000 0.502500 0.579500
0.674500 0.502500 0.579500
0.807000 0.502500 0.579500
0.939500 0.502500 0.579500
1.000000 0.502500 0.579500
0.012000 0.628125 0.579500
0.144500 0.628125 0.579500
0.277000 0.628125 0.579500
0.409500 0.628125 0.579500
0.542000 0.628125 0.579500
0.674500 0.628125 0.579500
0.807000 0.628125 0.579500
0.939500 0.628125 0.579500
1.000000 0.628125 0.579500
0.012000 0.753750 0.579500
0.144500 0.753750 0.579500
0.277000 0.753750 0.579500
0.409500 0.753750 0.579500
0.542000 0.753750 0.579500
0.674500 0.753750 0.579500
0.807000 0.753750 0.579500
0.939500 0.753750 0.579500
1.000000 0.753750 0.579500
0.012000 0.879375 0.579500
0.144500 0.879375 0.579500
0.277000 0.879375 0.579500
0.409500 0.879375 0.579500
0.542000 0.879375 0.579500
0.674500 0.879375 0.579500
0.807000 0.879375 0.579500
0.939500 0.879375 0.579500
1.000000 0.879375 0.579500
0.012000 1.000000 0.579500
0.144500 1.000000 0.579500
0.277000 1.000000 0.579500
0.409500 1.000000 0.579500
0.542000 1.000000 0.579500
0.674500 1.000000 0.579500
0.807000 1.000000 0.579500
0.939500 1.000000 0.579500
1.000000 1.000000 0.579500
0.012000 0.000000 0.697000
0.144500 0.000000 0.697000
0.277000 0.000000 0.697000
0.409500 0.000000 0.697000
0.542000 0.000000 0.697000
0.674500 0.000000 0.697000
0.807000 0.000000 0.697000
0.939500 0.000000 0.697000
1.000000 0.000000 0.697000
0.012000 0.125625 0.697000
0.144500 0.125625 0.697000
0.277000 0.125625 0.697000
0.409500 0.125625 0.697000
0.542000 0.125625 0.697000
0.674500 0.125625 0.697000
0.807000 0.125625 0.697000
0.939500 0.125625 0.697000
1.000000 0.125625 0.697000
0.012000 0.251250 0.697000
0.144500 0.251250 0.697000
0.277000 0.251250 0.697000
0.409500 0.251250 0.697000
0.542000 0.251250 0.697000
0.674500 0.251250 0.697000
0.807000 0.251250 0.697000
0.939500 0.251250 0.697000
1.000000 0.251250 0.697000
0.012000 0.376875 0.697000
0.144500 0.376875 0.697000
0.277000 0.376875 0.697000
0.409500 0.376875 0.697000
0.542000 0.376875 0.697000
0.674500 0.376875 0.697000
0.807000 0.376875 0.697000
0.939500 0.376875 0.697000
1.000000 0.376875 0.697000
0.012000 0.502500 0.697000
0.144500 0.502500 0.697000
0.277000 0.502500 0.697000
0.409500 0.502500 0.697000
0.542000 0.502500 0.697000
0.674500 0.502500 0.697000
0.807000 0.502500 0.697000
0.939500 0.502500 0.697000
1.000000 0.502500 0.697000
0.012000 0.628125 0.697000
0.144500 0.628125 0.697000
0.277000 0.628125 0.697000
0.409500 0.628125 0.697000
0.542000 0.628125 0.697000
0.674500 0.628125 0.697000
0.807000 0.628125 0.697000
0.939500 0.628125 0.697000
1.000000 0.628125 0.697000
0.012000 0.753750 0.697000
0.144500 0.753750 0.697000
0.277000 0.753750 0.697000
0.409500 0.753750 0.697000
0.542000 0.753750 0.697000
0.674500 0.753750 0.697000
0.807000 0.753750 0.697000
0.939500 0.753750 0.697000
1.000000 0.753750 0.697000
0.012000 0.879375 0.697000
0.144500 0.879375 0.697000
0.277000 0.879375 0.697000
0.409500 0.879375 0.697000
0.542000 0.879375 0.697000
0.674500 0.879375 0.697000
0.807000 0.879375 0.697000
0.939500 0.879375 0.697000
1.000000 0.879375 0.697000
0.012000 1.000000 0.697000
0.144500 1.000000 0.697000
0.277000 1.000000 0.697000
0.409500 1.000000 0.697000
0.542000 1.000000 0.697000
0.674500 1.000000 0.697000
0.807000 1.000000 0.697000
0.939500 1.000000 0.697000
1.000000 1.000000 0.697000
0.012000 0.000000 0.814500
0.144500 0.000000 0.814500
0.277000 0.000000 0.814500
0.409500 0.000000 0.814500
0.542000 0.000000 0.814500
0.674500 0.000000 0.814500
0.807000 0.000000 0.814500
0.939500 0.000000 0.814500
1.000000 0.000000 0.814500
0.012000 0.125625 0.814500
0.144500 0.125625 0.814500
0.277000 0.125625 0.814500
0.409500 0.125625 0.814500
0.542000 0.125625 0.814500
0.674500 0.125625 0.814500
0.807000 0.125625 0.814500
0.939500 0.125625 0.814500
1.000000 0.125625 0.814500
0.012000 0.251250 0.814500
0.144500 0.251250 0.814500
0.277000 0.251250 0.814500
0.409500 0.251250 0.814500
0.542000 0.251250 0.814500
0.674500 0.251250 0.814500
0.807000 0.251250 0.814500
0.939500 0.251250 0.814500
1.000000 0.251250 0.814500
0.012000 0.376875 0.814500
0.144500 0.376875 0.814500
0.277000 0.376875 0.814500
0.409500 0.376875 0.814500
0.542000 0.376875 0.814500
0.674500 0.376875 0.814500
0.807000 0.376875 0.814500
0.939500 0.376875 0.814500
1.000000 0.376875 0.814500
0.012000 0.502500 0.814500
0.144500 0.502500 0.814500
0.277000 0.502500 0.814500
0.409500 0.502500 0.814500
0.542000 0.502500 0.814500
0.674500 0.502500 0.814500
0.807000 0.502500 0.814500
0.939500 0.502500 0.814500
1.000000 0.502500 0.814500
0.012000 0.628125 0.814500
0.144500 0.628125 0.814500
0.277000 0.628125 0.814500
0.409500 0.628125 0.814500
0.542000 0.628125 0.814500
0.674500 0.628125 0.814500
0.807000 0.628125 0.814500
0.939500 0.628125 0.814500
1.000000 0.628125 0.814500
0.012000 0.753750 0.814500
0.144500 0.753750 0.814500
0.277000 0.753750 0.814500
0.409500 0.753750 0.814500
0.542000 0.753750 0.814500
0.674500 0.753750 0.814500
0.807000 0.753750 0.814500
0.939500 0.753750 0.814500
1.000000 0.753750 0.814500
0.012000 0.879375 0.814500
0.144500 0.879375 0.814500
0.277000 0.879375 0.814500
0.409500 0.879375 0.814500
0.542000 0.879375 0.814500
0.674500 0.879375 0.814500
0.807000 0.879375 0.814500
0.939500 0.879375 0.814500
1.000000 0.879375 0.814500
0.012000 1.000000 0.814500
0.144500 1.000000 0.814500
0.277000 1.000000 0.814500
0.409500 1.000000 0.814500
0.542000 1.000000 0.814500
0.674500 1.000000 0.814500
0.807000 1.000000 0.814500
0.939500 1.000000 0.814500
1.000000 1.000000 0.814500
0.012000 0.000000 0.932000
0.144500 0.000000 0.932000
0.277000 0.000000 0.932000
0.409500 0.000000 0.932000
0.542000 0.000000 0.932000
0.674500 0.000000 0.932000
0.807000 0.000000 0.932000
0.939500 0.000000 0.932000
1.000000 0.000000 0.932000
0.012000 0.125625 0.932000
0.144500 0.125625 0.932000
0.277000 0.125625 0.932000
0.409500 0.125625 0.932000
0.542000 0.125625 0.932000
0.674500 0.125625 0.932000
0.807000 0.125625 0.932000
0.939500 0.125625 0.932000
1.000000 0.125625 0.932000
0.012000 0.251250 0.932000
0.144500 0.251250 0.932000
0.277000 0.251250 0.932000
0.409500 0.251250 0.932000
0.542000 0.251250 0.932000
0.674500 0.251250 0.932000
0.807000 0.251250 0.932000
0.939500 0.251250 0.932000
1.000000 0.251250 0.932000
0.012000 0.376875 0.932000
0.144500 0.376875 0.932000
0.277000 0.376875 0.932000
0.409500 0.376875 0.932000
0.542000 0.376875 0.932000
0.674500 0.376875 0.932000
0.807000 0.376875 0.932000
0.939500 0.376875 0.932000
1.000000 0.376875 0.932000
0.012000 0.502500 0.932000
0.144500 0.502500 0.932000
0.277000 0.502500 0.932000
0.409500 0.502500 0.932000
0.542000 0.502500 0.932000
0.674500 0.502500 0.932000
0.807000 0.502500 0.932000
0.939500 0.502500 0.932000
1.000000 0.502500 0.932000
0.012000 0.628125 0.932000
0.144500 0.628125 0.932000
0.277000 0.628125 0.932000
0.409500 0.628125 0.932000
0.542000 0.628125 0.932000
0.674500 0.628125 0.932000
0.807000 0.628125 0.932000
0.939500 0.628125 0.932000
1.000000 0.628125 0.932000
0.012000 0.753750 0.932000
0.144500 0.753750 0.932000
0.277000 0.753750 0.932000
0.409500 0.753750 0.932000
0.542000 0.753750 0.932000
0.674500 0.753750 0.932000
0.807000 0.753750 0.932000
0.939500 0.753750 0.932000
1.000000 0.753750 0.932000
0.012000 0.879375 0.932000
0.144500 0.879375 0.932000
0.277000 0.879375 0.932000
0.409500 0.879375 0.932000
0.542000 0.879375 0.932000
0.674500 0.879375 0.932000
0.807000 0.879375 0.932000
0.939500 0.879375 0.932000
1.000000 0.879375 0.932000
0.012000 1.000000 0.932000
0.144500 1.000000 0.932000
0.277000 1.000000 0.932000
0.409500 1.000000 0.932000
0.542000 1.000000 0.932000
0.674500 1.000000 0.932000
0.807000 1.000000 0.932000
0.939500 1.000000 0.932000
1.000000 1.000000 0.932000
