PRISM/Resources/LUTs/Warm.cube
# Warm.cube — PRISM bundled LUT: +R −B tilt.
# Licensed under the Apache License, Version 2.0.
TITLE "Warm"
LUT_3D_SIZE 17
DOMAIN_MIN 0.000000 0.000000 0.000000
DOMAIN_MAX 1.000000 1.000000 1.000000
0.012000 0.000000 0.000000
0.078250 0.000000 0.000000
0.144500 0.000000 0.000000
0.210750 0.000000 0.000000
0.277000 0.000000 0.000000
0.343250 0.000000 0.000000
0.409500 0.000000 0.000000
0.475750 0.000000 0.000000
0.542000 0.000000 0.000000
0.608250 0.000000 0.000000
0.674500 0.000000 0.000000
0.740750 0.000000 0.000000
0.807000 0.000000 0.000000
0.873250 0.000000 0.000000
0.939500 0.000000 0.000000
1.000000 0.000000 0.000000
1.000000 0.000000 0.000000
0.012000 0.062812 0.000000
0.078250 0.062812 0.000000
0.144500 0.062812 0.000000
0.210750 0.062812 0.000000
0.277000 0.062812 0.000000
0.343250 0.062812 0.000000
0.409500 0.062812 0.000000
0.475750 0.062812 0.000000
0.542000 0.062812 0.000000
0.608250 0.062812 0.000000
0.674500 0.062812 0.000000
0.740750 0.062812 0.000000
0.807000 0.062812 0.000000
0.873250 0.062812 0.000000
0.939500 0.062812 0.000000
1.000000 0.062812 0.000000
1.000000 0.062812 0.000000
0.012000 0.125625 0.000000
0.078250 0.125625 0.000000
0.144500 0.125625 0.000000
0.210750 0.125625 0.000000
0.277000 0.125625 0.000000
0.343250 0.125625 0.000000
0.409500 0.125625 0.000000
0.475750 0.125625 0.000000
0.542000 0.125625 0.000000
0.608250 0.125625 0.000000
0.674500 0.125625 0.000000
0.740750 0.125625 0.000000
0.807000 0.125625 0.000000
0.873250 0.125625 0.000000
0.939500 0.125625 0.000000
1.000000 0.125625 0.000000
1.000000 0.125625 0.000000
0.012000 0.188437 0.000000
0.078250 0.188437 0.000000
0.144500 0.188437 0.000000
0.210750 0.188437 0.000000
0.277000 0.188437 0.000000
0.343250 0.188437 0.000000
0.409500 0.188437 0.000000
0.475750 0.188437 0.000000
0.542000 0.188437 0.000000
0.608250 0.188437 0.000000
0.674500 0.188437 0.000000
0.740750 0.188437 0.000000
0.807000 0.188437 0.000000
0.873250 0.188437 0.000000
0.939500 0.188437 0.000000
1.000000 0.188437 0.000000
1.000000 0.188437 0.000000
0.012000 0.251250 0.000000
0.078250 0.251250 0.000000
0.144500 0.251250 0.000000
0.210750 0.251250 0.000000
0.277000 0.251250 0.000000
0.343250 0.251250 0.000000
0.409500 0.251250 0.000000
0.475750 0.251250 0.000000
0.542000 0.251250 0.000000
0.608250 0.251250 0.000000
0.674500 0.251250 0.000000
0.740750 0.251250 0.000000
0.807000 0.251250 0.000000
0.873250 0.251250 0.000000
0.939500 0.251250 0.000000
1.000000 0.251250 0.000000
1.000000 0.251250 0.000000
0.012000 0.314062 0.000000
0.078250 0.314062 0.000000
0.144500 0.314062 0.000000
0.210750 0.314062 0.000000
0.277000 0.314062 0.000000
0.343250 0.314062 0.000000
0.409500 0.314062 0.000000
0.475750 0.314062 0.000000
0.542000 0.314062 0.000000
0.608250 0.314062 0.000000
0.674500 0.314062 0.000000
0.740750 0.314062 0.000000
0.807000 0.314062 0.000000
0.873250 0.314062 0.000000
0.939500 0.314062 0.000000
1.000000 0.314062 0.000000
1.000000 0.314062 0.000000
0.012000 0.376875 0.000000
0.078250 0.376875 0.000000
0.144500 0.376875 0.000000
0.210750 0.376875 0.000000
0.277000 0.376875 0.000000
0.343250 0.376875 0.000000
0.409500 0.376875 0.000000
0.475750 0.376875 0.000000
0.542000 0.376875 0.000000
0.608250 0.376875 0.000000
0.674500 0.376875 0.000000
0.740750 0.376875 0.000000
0.807000 0.376875 0.000000
0.873250 0.376875 0.000000
0.939500 0.376875 0.000000
1.000000 0.376875 0.000000
1.000000 0.376875 0.000000
0.012000 0.439687 0.000000
0.078250 0.439687 0.000000
0.144500 0.439687 0.000000
0.210750 0.439687 0.000000
0.277000 0.439687 0.000000
0.343250 0.439687 0.000000
0.409500 0.439687 0.000000
0.475750 0.439687 0.000000
0.542000 0.439687 0.000000
0.608250 0.439687 0.000000
0.674500 0.439687 0.000000
0.740750 0.439687 0.000000
0.807000 0.439687 0.000000
0.873250 0.439687 0.000000
0.939500 0.439687 0.000000
1.000000 0.439687 0.000000
1.000000 0.439687 0.000000
0.012000 0.502500 0.000000
0.078250 0.502500 0.000000
0.144500 0.502500 0.000000
0.210750 0.502500 0.000000
0.277000 0.502500 0.000000
0.343250 0.502500 0.000000
0.409500 0.502500 0.000000
0.475750 0.502500 0.000000
0.542000 0.502500 0.000000
0.608250 0.502500 0.000000
0.674500 0.502500 0.000000
0.740750 0.502500 0.000000
0.807000 0.502500 0.000000
0.873250 0.502500 0.000000
0.939500 0.502500 0.000000
1.000000 0.502500 0.000000
1.000000 0.502500 0.000000
0.012000 0.565312 0.000000
0.078250 0.565312 0.000000
0.144500 0.565312 0.000000
0.210750 0.565312 0.000000
0.277000 0.565312 0.000000
0.343250 0.565312 0.000000
0.409500 0.565312 0.000000
0.475750 0.565312 0.000000
0.542000 0.565312 0.000000
0.608250 0.565312 0.000000
0.674500 0.565312 0.000000
0.740750 0.565312 0.000000
0.807000 0.565312 0.000000
0.873250 0.565312 0.000000
0.939500 0.565312 0.000000
1.000000 0.565312 0.000000
1.000000 0.565312 0.000000
0.012000 0.628125 0.000000
0.078250 0.628125 0.000000
0.144500 0.628125 0.000000
0.210750 0.628125 0.000000
0.277000 0.628125 0.000000
0.343250 0.628125 0.000000
0.409500 0.628125 0.000000
0.475750 0.628125 0.000000
0.542000 0.628125 0.000000
0.608250 0.628125 0.000000
0.674500 0.628125 0.000000
0.740750 0.628125 0.000000
0.807000 0.628125 0.000000
0.873250 0.628125 0.000000
0.939500 0.628125 0.000000
1.000000 0.628125 0.000000
1.000000 0.628125 0.000000
0.012000 0.690937 0.000000
0.078250 0.690937 0.000000
0.144500 0.690937 0.000000
0.210750 0.690937 0.000000
0.277000 0.690937 0.000000
0.343250 0.690937 0.000000
0.409500 0.690937 0.000000
0.475750 0.690937 0.000000
0.542000 0.690937 0.000000
0.608250 0.690937 0.000000
0.674500 0.690937 0.000000
0.740750 0.690937 0.000000
0.807000 0.690937 0.000000
0.873250 0.690937 0.000000
0.939500 0.690937 0.000000
1.000000 0.690937 0.000000
1.000000 0.690937 0.000000
0.012000 0.753750 0.000000
0.078250 0.753750 0.000000
0.144500 0.753750 0.000000
0.210750 0.753750 0.000000
0.277000 0.753750 0.000000
0.343250 0.753750 0.000000
0.409500 0.753750 0.000000
0.475750 0.753750 0.000000
0.542000 0.753750 0.000000
0.608250 0.753750 0.000000
0.674500 0.753750 0.000000
0.740750 0.753750 0.000000
0.807000 0.753750 0.000000
0.873250 0.753750 0.000000
0.939500 0.753750 0.000000
1.000000 0.753750 0.000000
1.000000 0.753750 0.000000
0.012000 0.816562 0.000000
0.078250 0.816562 0.000000
0.144500 0.816562 0.000000
0.210750 0.816562 0.000000
0.277000 0.816562 0.000000
0.343250 0.816562 0.000000
0.409500 0.816562 0.000000
0.475750 0.816562 0.000000
0.542000 0.816562 0.000000
0.608250 0.816562 0.000000
0.674500 0.816562 0.000000
0.740750 0.816562 0.000000
0.807000 0.816562 0.000000
0.873250 0.816562 0.000000
0.939500 0.816562 0.000000
1.000000 0.816562 0.000000
1.000000 0.816562 0.000000
0.012000 0.879375 0.000000
0.078250 0.879375 0.000000
0.144500 0.879375 0.000000
0.210750 0.879375 0.000000
0.277000 0.879375 0.000000
0.343250 0.879375 0.000000
0.409500 0.879375 0.000000
0.475750 0.879375 0.000000
0.542000 0.879375 0.000000
0.608250 0.879375 0.000000
0.674500 0.879375 0.000000
0.740750 0.879375 0.000000
0.807000 0.879375 0.000000
0.873250 0.879375 0.000000
0.939500 0.879375 0.000000
1.000000 0.879375 0.000000
1.000000 0.879375 0.000000
0.012000 0.942187 0.000000
0.078250 0.942187 0.000000
0.144500 0.942187 0.000000
0.210750 0.942187 0.000000
0.277000 0.942187 0.000000
0.343250 0.942187 0.000000
0.409500 0.942187 0.000000
0.475750 0.942187 0.000000
0.542000 0.942187 0.000000
0.608250 0.942187 0.000000
0.674500 0.942187 0.000000
0.740750 0.942187 0.000000
0.807000 0.942187 0.000000
0.873250 0.942187 0.000000
0.939500 0.942187 0.000000
1.000000 0.942187 0.000000
1.000000 0.942187 0.000000
0.012000 1.000000 0.000000
0.078250 1.000000 0.000000
0.144500 1.000000 0.000000
0.210750 1.000000 0.000000
0.277000 1.000000 0.000000
0.343250 1.000000 0.000000
0.409500 1.000000 0.000000
0.475750 1.000000 0.000000
0.542000 1.000000 0.000000
0.608250 1.000000 0.000000
0.674500 1.000000 0.000000
0.740750 1.000000 0.000000
0.807000 1.000000 0.000000
0.873250 1.000000 0.000000
0.939500 1.000000 0.000000
1.000000 1.000000 0.000000
1.000000 1.000000 0.000000
0.012000 0.000000 0.050750
0.078250 0.000000 0.050750
0.144500 0.000000 0.050750
0.210750 0.000000 0.050750
0.277000 0.000000 0.050750
0.343250 0.000000 0.050750
0.409500 0.000000 0.050750
0.475750 0.000000 0.050750
0.542000 0.000000 0.050750
0.608250 0.000000 0.050750
0.674500 0.000000 0.050750
0.740750 0.000000 0.050750
0.807000 0.000000 0.050750
0.873250 0.000000 0.050750
0.939500 0.000000 0.050750
1.000000 0.000000 0.050750
1.000000 0.000000 0.050750
0.012000 0.062812 0.050750
0.078250 0.062812 0.050750
0.144500 0.062812 0.050750
0.210750 0.062812 0.050750
0.277000 0.062812 0.050750
0.343250 0.062812 0.050750
0.409500 0.062812 0.050750
0.475750 0.062812 0.050750
0.542000 0.062812 0.050750
0.608250 0.062812 0.050750
0.674500 0.062812 0.050750
0.740750 0.062812 0.050750
0.807000 0.062812 0.050750
0.873250 0.062812 0.050750
0.939500 0.062812 0.050750
1.000000 0.062812 0.050750
1.000000 0.062812 0.050750
0.012000 0.125625 0.050750
0.078250 0.125625 0.050750
0.144500 0.125625 0.050750
0.210750 0.125625 0.050750
0.277000 0.125625 0.050750
0.343250 0.125625 0.050750
0.409500 0.125625 0.050750
0.475750 0.125625 0.050750
0.542000 0.125625 0.050750
0.608250 0.125625 0.050750
0.674500 0.125625 0.050750
0.740750 0.125625 0.050750
0.807000 0.125625 0.050750
0.873250 0.125625 0.050750
0.939500 0.125625 0.050750
1.000000 0.125625 0.050750
1.000000 0.125625 0.050750
0.012000 0.188437 0.050750
0.078250 0.188437 0.050750
0.144500 0.188437 0.050750
0.210750 0.188437 0.050750
0.277000 0.188437 0.050750
0.343250 0.188437 0.050750
0.409500 0.188437 0.050750
0.475750 0.188437 0.050750
0.542000 0.188437 0.050750
0.608250 0.188437 0.050750
0.674500 0.188437 0.050750
0.740750 0.188437 0.050750
0.807000 0.188437 0.050750
0.873250 0.188437 0.050750
0.939500 0.188437 0.050750
1.000000 0.188437 0.050750
1.000000 0.188437 0.050750
0.012000 0.251250 0.050750
0.078250 0.251250 0.050750
0.144500 0.251250 0.050750
0.210750 0.251250 0.050750
0.277000 0.251250 0.050750
0.343250 0.251250 0.050750
0.409500 0.251250 0.050750
0.475750 0.251250 0.050750
0.542000 0.251250 0.050750
0.608250 0.251250 0.050750
0.674500 0.251250 0.050750
0.740750 0.251250 0.050750
0.807000 0.251250 0.050750
0.873250 0.251250 0.050750
0.939500 0.251250 0.050750
1.000000 0.251250 0.050750
1.000000 0.251250 0.050750
0.012000 0.314062 0.050750
0.078250 0.314062 0.050750
0.144500 0.314062 0.050750
0.210750 0.314062 0.050750
0.277000 0.314062 0.050750
0.343250 0.314062 0.050750
0.409500 0.314062 0.050750
0.475750 0.314062 0.050750
0.542000 0.314062 0.050750
0.608250 0.314062 0.050750
0.674500 0.314062 0.050750
0.740750 0.314062 0.050750
0.807000 0.314062 0.050750
0.873250 0.314062 0.050750
0.939500 0.314062 0.050750
1.000000 0.314062 0.050750
1.000000 0.314062 0.050750
0.012000 0.376875 0.050750
0.078250 0.376875 0.050750
0.144500 0.376875 0.050750
0.210750 0.376875 0.050750
0.277000 0.376875 0.050750
0.343250 0.376875 0.050750
0.409500 0.376875 0.050750
0.475750 0.376875 0.050750
0.542000 0.376875 0.050750
0.608250 0.376875 0.050750
0.674500 0.376875 0.050750
0.740750 0.376875 0.050750
0.807000 0.376875 0.050750
0.873250 0.376875 0.050750
0.939500 0.376875 0.050750
1.000000 0.376875 0.050750
1.000000 0.376875 0.050750
0.012000 0.439687 0.050750
0.078250 0.439687 0.050750
0.144500 0.439687 0.050750
0.210750 0.439687 0.050750
0.277000 0.439687 0.050750
0.343250 0.439687 0.050750
0.409500 0.439687 0.050750
0.475750 0.439687 0.050750
0.542000 0.439687 0.050750
0.608250 0.439687 0.050750
0.674500 0.439687 0.050750
0.740750 0.439687 0.050750
0.807000 0.439687 0.050750
0.873250 0.439687 0.050750
0.939500 0.439687 0.050750
1.000000 0.439687 0.050750
1.000000 0.439687 0.050750
0.012000 0.502500 0.050750
0.078250 0.502500 0.050750
0.144500 0.502500 0.050750
0.210750 0.502500 0.050750
0.277000 0.502500 0.050750
0.343250 0.502500 0.050750
0.409500 0.502500 0.050750
0.475750 0.502500 0.050750
0.542000 0.502500 0.050750
0.608250 0.502500 0.050750
0.674500 0.502500 0.050750
0.740750 0.502500 0.050750
0.807000 0.502500 0.050750
0.873250 0.502500 0.050750
0.939500 0.502500 0.050750
1.000000 0.502500 0.050750
1.000000 0.502500 0.050750
0.012000 0.565312 0.050750
0.078250 0.565312 0.050750
0.144500 0.565312 0.050750
0.210750 0.565312 0.050750
0.277000 0.565312 0.050750
0.343250 0.565312 0.050750
0.409500 0.565312 0.050750
0.475750 0.565312 0.050750
0.542000 0.565312 0.050750
0.608250 0.565312 0.050750
0.674500 0.565312 0.050750
0.740750 0.565312 0.050750
0.807000 0.565312 0.050750
0.873250 0.565312 0.050750
0.939500 0.565312 0.050750
1.000000 0.565312 0.050750
1.000000 0.565312 0.050750
0.012000 0.628125 0.050750
0.078250 0.628125 0.050750
0.144500 0.628125 0.050750
0.210750 0.628125 0.050750
0.277000 0.628125 0.050750
0.343250 0.628125 0.050750
0.409500 0.628125 0.050750
0.475750 0.628125 0.050750
0.542000 0.628125 0.050750
0.608250 0.628125 0.050750
0.674500 0.628125 0.050750
0.740750 0.628125 0.050750
0.807000 0.628125 0.050750
0.873250 0.628125 0.050750
0.939500 0.628125 0.050750
1.000000 0.628125 0.050750
1.000000 0.628125 0.050750
0.012000 0.690937 0.050750
0.078250 0.690937 0.050750
0.144500 0.690937 0.050750
0.210750 0.690937 0.050750
0.277000 0.690937 0.050750
0.343250 0.690937 0.050750
0.409500 0.690937 0.050750
0.475750 0.690937 0.050750
0.542000 0.690937 0.050750
0.608250 0.690937 0.050750
0.674500 0.690937 0.050750
0.740750 0.690937 0.050750
0.807000 0.690937 0.050750
0.873250 0.690937 0.050750
0.939500 0.690937 0.050750
1.000000 0.690937 0.050750
1.000000 0.690937 0.050750
0.012000 0.753750 0.050750
0.078250 0.753750 0.050750
0.144500 0.753750 0.050750
0.210750 0.753750 0.050750
0.277000 0.753750 0.050750
0.343250 0.753750 0.050750
0.409500 0.753750 0.050750
0.475750 0.753750 0.050750
0.542000 0.753750 0.050750
0.608250 0.753750 0.050750
0.674500 0.753750 0.050750
0.740750 0.753750 0.050750
0.807000 0.753750 0.050750
0.873250 0.753750 0.050750
0.939500 0.753750 0.050750
1.000000 0.753750 0.050750
1.000000 0.753750 0.050750
0.012000 0.816562 0.050750
0.078250 0.816562 0.050750
0.144500 0.816562 0.050750
0.210750 0.816562 0.050750
0.277000 0.816562 0.050750
0.343250 0.816562 0.050750
0.409500 0.816562 0.050750
0.475750 0.816562 0.050750
0.542000 0.816562 0.050750
0.608250 0.816562 0.050750
0.674500 0.816562 0.050750
0.740750 0.816562 0.050750
0.807000 0.816562 0.050750
0.873250 0.816562 0.050750
0.939500 0.816562 0.050750
1.000000 0.816562 0.050750
1.000000 0.816562 0.050750
0.012000 0.879375 0.050750
0.078250 0.879375 0.050750
0.144500 0.879375 0.050750
0.210750 0.879375 0.050750
0.277000 0.879375 0.050750
0.343250 0.879375 0.050750
0.409500 0.879375 0.050750
0.475750 0.879375 0.050750
0.542000 0.879375 0.050750
0.608250 0.879375 0.050750
0.674500 0.879375 0.050750
0.740750 0.879375 0.050750
0.807000 0.879375 0.050750
0.873250 0.879375 0.050750
0.939500 0.879375 0.050750
1.000000 0.879375 0.050750
1.000000 0.879375 0.050750
0.012000 0.942187 0.050750
0.078250 0.942187 0.050750
0.144500 0.942187 0.050750
0.210750 0.942187 0.050750
0.277000 0.942187 0.050750
0.343250 0.942187 0.050750
0.409500 0.942187 0.050750
0.475750 0.942187 0.050750
0.542000 0.942187 0.050750
0.608250 0.942187 0.050750
0.674500 0.942187 0.050750
0.740750 0.942187 0.050750
0.807000 0.942187 0.050750
0.873250 0.942187 0.050750
0.939500 0.942187 0.050750
1.000000 0.942187 0.050750
1.000000 0.942187 0.050750
0.012000 1.000000 0.050750
0.078250 1.000000 0.050750
0.144500 1.000000 0.050750
0.210750 1.000000 0.050750
0.277000 1.000000 0.050750
0.343250 1.000000 0.050750
0.409500 1.000000 0.050750
0.475750 1.000000 0.050750
0.542000 1.000000 0.050750
0.608250 1.000000 0.050750
0.674500 1.000000 0.050750
0.740750 1.000000 0.050750
0.807000 1.000000 0.050750
0.873250 1.000000 0.050750
0.939500 1.000000 0.050750
1.000000 1.000000 0.050750
1.000000 1.000000 0.050750
0.012000 0.000000 0.109500
0.078250 0.000000 0.109500
0.144500 0.000000 0.109500
0.210750 0.000000 0.109500
0.277000 0.000000 0.109500
0.343250 0.000000 0.109500
0.409500 0.000000 0.109500
0.475750 0.000000 0.109500
0.542000 0.000000 0.109500
0.608250 0.000000 0.109500
0.674500 0.000000 0.109500
0.740750 0.000000 0.109500
0.807000 0.000000 0.109500
0.873250 0.000000 0.109500
0.939500 0.000000 0.109500
1.000000 0.000000 0.109500
1.000000 0.000000 0.109500
0.012000 0.062812 0.109500
0.078250 0.062812 0.109500
0.144500 0.062812 0.109500
0.210750 0.062812 0.109500
0.277000 0.062812 0.109500
0.343250 0.062812 0.109500
0.409500 0.062812 0.109500
0.475750 0.062812 0.109500
0.542000 0.062812 0.109500
0.608250 0.062812 0.109500
0.674500 0.062812 0.109500
0.740750 0.062812 0.109500
0.807000 0.062812 0.109500
0.873250 0.062812 0.109500
0.939500 0.062812 0.109500
1.000000 0.062812 0.109500
1.000000 0.062812 0.109500
0.012000 0.125625 0.109500
0.078250 0.125625 0.109500
0.144500 0.125625 0.109500
0.210750 0.125625 0.109500
0.277000 0.125625 0.109500
0.343250 0.125625 0.109500
0.409500 0.125625 0.109500
0.475750 0.125625 0.109500
0.542000 0.125625 0.109500
0.608250 0.125625 0.109500
0.674500 0.125625 0.109500
0.740750 0.125625 0.109500
0.807000 0.125625 0.109500
0.873250 0.125625 0.109500
0.939500 0.125625 0.109500
1.000000 0.125625 0.109500
1.000000 0.125625 0.109500
0.012000 0.188437 0.109500
0.078250 0.188437 0.109500
0.144500 0.188437 0.109500
0.210750 0.188437 0.109500
0.277000 0.188437 0.109500
0.343250 0.188437 0.109500
0.409500 0.188437 0.109500
0.475750 0.188437 0.109500
0.542000 0.188437 0.109500
0.608250 0.188437 0.109500
0.674500 0.188437 0.109500
0.740750 0.188437 0.109500
0.807000 0.188437 0.109500
0.873250 0.188437 0.109500
0.939500 0.188437 0.109500
1.000000 0.188437 0.109500
1.000000 0.188437 0.109500
0.012000 0.251250 0.109500
0.078250 0.251250 0.109500
0.144500 0.251250 0.109500
0.210750 0.251250 0.109500
0.277000 0.251250 0.109500
0.343250 0.251250 0.109500
0.409500 0.251250 0.109500
0.475750 0.251250 0.109500
0.542000 0.251250 0.109500
0.608250 0.251250 0.109500
0.674500 0.251250 0.109500
0.740750 0.251250 0.109500
0.807000 0.251250 0.109500
0.873250 0.251250 0.109500
0.939500 0.251250 0.109500
1.000000 0.251250 0.109500
1.000000 0.251250 0.109500
0.012000 0.314062 0.109500
0.078250 0.314062 0.109500
0.144500 0.314062 0.109500
0.210750 0.314062 0.109500
0.277000 0.314062 0.109500
0.343250 0.314062 0.109500
0.409500 0.314062 0.109500
0.475750 0.314062 0.109500
0.542000 0.314062 0.109500
0.608250 0.314062 0.109500
0.674500 0.314062 0.109500
0.740750 0.314062 0.109500
0.807000 0.314062 0.109500
0.873250 0.314062 0.109500
0.939500 0.314062 0.109500
1.000000 0.314062 0.109500
1.000000 0.314062 0.109500
0.012000 0.376875 0.109500
0.078250 0.376875 0.109500
0.144500 0.376875 0.109500
0.210750 0.376875 0.109500
0.277000 0.376875 0.109500
0.343250 0.376875 0.109500
0.409500 0.376875 0.109500
0.475750 0.376875 0.109500
0.542000 0.376875 0.109500
0.608250 0.376875 0.109500
0.674500 0.376875 0.109500
0.740750 0.376875 0.109500
0.807000 0.376875 0.109500
0.873250 0.376875 0.109500
0.939500 0.376875 0.109500
1.000000 0.376875 0.109500
1.000000 0.376875 0.109500
0.012000 0.439687 0.109500
0.078250 0.439687 0.109500
0.144500 0.439687 0.109500
0.210750 0.439687 0.109500
0.277000 0.439687 0.109500
0.343250 0.439687 0.109500
0.409500 0.439687 0.109500
0.475750 0.439687 0.109500
0.542000 0.439687 0.109500
0.608250 0.439687 0.109500
0.674500 0.439687 0.109500
0.740750 0.439687 0.109500
0.807000 0.439687 0.109500
0.873250 0.439687 0.109500
0.939500 0.439687 0.109500
1.000000 0.439687 0.109500
1.000000 0.439687 0.109500
0.012000 0.502500 0.109500
0.078250 0.502500 0.109500
0.144500 0.502500 0.109500
0.210750 0.502500 0.109500
0.277000 0.502500 0.109500
0.343250 0.502500 0.109500
0.409500 0.502500 0.109500
0.475750 0.502500 0.109500
0.542000 0.502500 0.109500
0.608250 0.502500 0.109500
0.674500 0.502500 0.109500
0.740750 0.502500 0.109500
0.807000 0.502500 0.109500
0.873250 0.502500 0.109500
0.939500 0.502500 0.109500
1.000000 0.502500 0.109500
1.000000 0.502500 0.109500
0.012000 0.565312 0.109500
0.078250 0.565312 0.109500
0.144500 0.565312 0.109500
0.210750 0.565312 0.109500
0.277000 0.565312 0.109500
0.343250 0.565312 0.109500
0.409500 0.565312 0.109500
0.475750 0.565312 0.109500
0.542000 0.565312 0.109500
0.608250 0.565312 0.109500
0.674500 0.565312 0.109500
0.740750 0.565312 0.109500
0.807000 0.565312 0.109500
0.873250 0.565312 0.109500
0.939500 0.565312 0.109500
1.000000 0.565312 0.109500
1.000000 0.565312 0.109500
0.012000 0.628125 0.109500
0.078250 0.628125 0.109500
0.144500 0.628125 0.109500
0.210750 0.628125 0.109500
0.277000 0.628125 0.109500
0.343250 0.628125 0.109500
0.409500 0.628125 0.109500
0.475750 0.628125 0.109500
0.542000 0.628125 0.109500
0.608250 0.628125 0.109500
0.674500 0.628125 0.109500
0.740750 0.628125 0.109500
0.807000 0.628125 0.109500
0.873250 0.628125 0.109500
0.939500 0.628125 0.109500
1.000000 0.628125 0.109500
1.000000 0.628125 0.109500
0.012000 0.690937 0.109500
0.078250 0.690937 0.109500
0.144500 0.690937 0.109500
0.210750 0.690937 0.109500
0.277000 0.690937 0.109500
0.343250 0.690937 0.109500
0.409500 0.690937 0.109500
0.475750 0.690937 0.109500
0.542000 0.690937 0.109500
0.608250 0.690937 0.109500
0.674500 0.690937 0.109500
0.740750 0.690937 0.109500
0.807000 0.690937 0.109500
0.873250 0.690937 0.109500
0.939500 0.690937 0.109500
1.000000 0.690937 0.109500
1.000000 0.690937 0.109500
0.012000 0.753750 0.109500
0.078250 0.753750 0.109500
0.144500 0.753750 0.109500
0.210750 0.753750 0.109500
0.277000 0.753750 0.109500
0.343250 0.753750 0.109500
0.409500 0.753750 0.109500
0.475750 0.753750 0.109500
0.542000 0.753750 0.109500
0.608250 0.753750 0.109500
0.674500 0.753750 0.109500
0.740750 0.753750 0.109500
0.807000 0.753750 0.109500
0.873250 0.753750 0.109500
0.939500 0.753750 0.109500
1.000000 0.753750 0.109500
1.000000 0.753750 0.109500
0.012000 0.816562 0.109500
0.078250 0.816562 0.109500
0.144500 0.816562 0.109500
0.210750 0.816562 0.109500
0.277000 0.816562 0.109500
0.343250 0.816562 0.109500
0.409500 0.816562 0.109500
0.475750 0.816562 0.109500
0.542000 0.816562 0.109500
0.608250 0.816562 0.109500
0.674500 0.816562 0.109500
0.740750 0.816562 0.109500
0.807000 0.816562 0.109500
0.873250 0.816562 0.109500
0.939500 0.816562 0.109500
1.000000 0.816562 0.109500
1.000000 0.816562 0.109500
0.012000 0.879375 0.109500
0.078250 0.879375 0.109500
0.144500 0.879375 0.109500
0.210750 0.879375 0.109500
0.277000 0.879375 0.109500
0.343250 0.879375 0.109500
0.409500 0.879375 0.109500
0.475750 0.879375 0.109500
0.542000 0.879375 0.109500
0.608250 0.879375 0.109500
0.674500 0.879375 0.109500
0.740750 0.879375 0.109500
0.807000 0.879375 0.109500
0.873250 0.879375 0.109500
0.939500 0.879375 0.109500
1.000000 0.879375 0.109500
1.000000 0.879375 0.109500
0.012000 0.942187 0.109500
0.078250 0.942187 0.109500
0.144500 0.942187 0.109500
0.210750 0.942187 0.109500
0.277000 0.942187 0.109500
0.343250 0.942187 0.109500
0.409500 0.942187 0.109500
0.475750 0.942187 0.109500
0.542000 0.942187 0.109500
0.608250 0.942187 0.109500
0.674500 0.942187 0.109500
0.740750 0.942187 0.109500
0.807000 0.942187 0.109500
0.873250 0.942187 0.109500
0.939500 0.942187 0.109500
1.000000 0.942187 0.109500
1.000000 0.942187 0.109500
0.012000 1.000000 0.109500
0.078250 1.000000 0.109500
0.144500 1.000000 0.109500
0.210750 1.000000 0.109500
0.277000 1.000000 0.109500
0.343250 1.000000 0.109500
0.409500 1.000000 0.109500
0.475750 1.000000 0.109500
0.542000 1.000000 0.109500
0.608250 1.000000 0.109500
0.674500 1.000000 0.109500
0.740750 1.000000 0.109500
0.807000 1.000000 0.109500
0.873250 1.000000 0.109500
0.939500 1.000000 0.109500
1.000000 1.000000 0.109500
1.000000 1.000000 0.109500
0.012000 0.000000 0.168250
0.078250 0.000000 0.168250
0.144500 0.000000 0.168250
0.210750 0.000000 0.168250
0.277000 0.000000 0.168250
0.343250 0.000000 0.168250
0.409500 0.000000 0.168250
0.475750 0.000000 0.168250
0.542000 0.000000 0.168250
0.608250 0.000000 0.168250
0.674500 0.000000 0.168250
0.740750 0.000000 0.168250
0.807000 0.000000 0.168250
0.873250 0.000000 0.168250
